%
(Header)
(Generated by gcodetools from Inkscape.)
(Using default header. To add your own header create file "header" in the output dir.)
M3
(Header end.)
G21 (All units in mm)

(Start cutting path id: path679)
(Change tool to Default tool)

G00 Z5.000000
G00 X0.000005 Y-0.000040

G01 Z-0.125000 F100.0(Penetrate)
G01 X121.708325 Y21.922628 Z-0.125000 F400.000000
G01 X122.464244 Y100.541674 Z-0.125000
G00 Z5.000000   

(End cutting path id: path679)


(Start cutting path id: path679)
(Change tool to Default tool)

G00 Z5.000000
G00 X0.000005 Y-0.000040

G01 Z-0.125000 F100.0(Penetrate)
G01 X121.708325 Y21.922628 Z-0.125000 F400.000000
G01 X122.464244 Y100.541674 Z-0.125000
G00 Z5.000000

(End cutting path id: path679)


(Footer)
M5
G00 X0.0000 Y0.0000
M2
(Using default footer. To add your own footer create file "footer" in the output dir.)
(end)
%