(Picasso dog, scaled to 56x56 mm, centered at origin)
(Generated from picasso_0005.ngc source path data)
(Scale factor applied: 0.727568)
(Start point rotated to lower contour / belly heuristic)
G21
G90
G03 X-9.128 Y-7.617
G03 X-8.157 Y-3.601
G03 X2.722 Y-2.089
G03 X4.516 Y-1.750
G03 X20.914 Y-5.857
G03 X21.028 Y-6.277
G03 X21.760 Y-7.283
G03 X22.503 Y-7.562
G03 X22.888 Y-7.246
G03 X23.230 Y-3.911
G03 X23.873 Y2.249
G03 X23.976 Y3.324
G03 X27.370 Y5.970
G03 X28.000 Y7.358
G03 X27.985 Y7.706
G03 X27.943 Y7.798
G03 X27.855 Y7.832
G03 X27.584 Y7.790
G03 X25.972 Y7.508
G03 X25.728 Y7.391
G03 X24.145 Y6.697
G03 X23.777 Y6.514
G03 X15.509 Y4.262
G03 X13.758 Y3.787
G03 X4.158 Y2.766
G03 X3.749 Y2.643
G03 X-5.717 Y3.192
G03 X-6.787 Y3.304
G03 X-10.564 Y4.243
G03 X-11.465 Y4.550
G03 X-13.365 Y6.848
G03 X-14.247 Y7.345
G03 X-15.046 Y7.213
G03 X-17.845 Y5.100
G03 X-20.846 Y2.898
G03 X-21.516 Y2.495
G03 X-24.377 Y1.045
G03 X-24.425 Y0.966
G03 X-25.822 Y0.232
G03 X-26.539 Y-0.319
G03 X-27.991 Y-1.227
G03 X-28.000 Y-1.725
G03 X-27.553 Y-2.004
G03 X-24.879 Y-2.196
G03 X-23.904 Y-2.113
G03 X-22.151 Y-1.745
G03 X-16.096 Y-5.148
G03 X-15.738 Y-5.831
G03 X-14.778 Y-6.680
G03 X-13.895 Y-6.864
G03 X-13.463 Y-6.579
G03 X-12.619 Y-4.569
G03 X-11.941 Y-0.793
G03 X-12.090 Y3.204
G03 X-9.891 Y3.344
G03 X-6.166 Y2.644
G03 X-2.926 Y2.116
G03 X0.645 Y2.033
G03 X4.216 Y2.062
G03 X4.347 Y2.097
G03 X10.642 Y2.644
G03 X11.940 Y2.853
G03 X14.283 Y3.311
G03 X15.390 Y3.609
G03 X16.931 Y3.955
G03 X18.489 Y4.317
G03 X22.060 Y5.216
G03 X22.958 Y5.609
G03 X24.743 Y6.289
G03 X25.736 Y6.777
G03 X23.253 Y4.507
G03 X23.232 Y4.142
G03 X22.787 Y-0.208
G03 X22.640 Y-3.459
G03 X20.839 Y-1.465
G03 X20.682 Y-1.237
G03 X19.840 Y-0.925
G03 X13.072 Y-0.454
G03 X10.649 Y-0.471
G03 X7.846 Y-0.722
G03 X5.050 Y-1.107
G03 X3.455 Y-1.367
G03 X-7.873 Y-1.807
G03 X-8.155 Y-1.950
G03 X-8.340 Y-2.238
G03 X-8.451 Y-2.558
G03 X-9.444 Y-6.245
G03 X-9.576 Y-7.500
G03 X-9.514 Y-7.770
G03 X-9.416 Y-7.832
G03 X-9.128 Y-7.617
G03 X-8.157 Y-3.601
G03 X2.722 Y-2.089
G03 X4.516 Y-1.750
G03 X20.914 Y-5.857
G03 X21.028 Y-6.277
G03 X21.760 Y-7.283
G03 X22.503 Y-7.562
G03 X22.888 Y-7.246
G03 X23.230 Y-3.911
G03 X23.873 Y2.249
G03 X23.976 Y3.324
G03 X27.370 Y5.970
G03 X28.000 Y7.358
G03 X27.985 Y7.706
G03 X27.943 Y7.798
G03 X-12.924 Y-3.709
G03 X-13.039 Y-4.451
G03 X-16.426 Y-0.419
G03 X-16.168 Y0.948
G03 X-12.924 Y-3.709
G03 X-13.039 Y-4.451
G03 X-16.426 Y-0.419
G03 X-16.168 Y0.948
G03 X-15.300 Y4.256
G03 X-16.049 Y3.294
G03 X-16.437 Y2.165
G03 X-16.693 Y1.063
G03 X-19.514 Y-0.590
G03 X-20.271 Y-0.792
G03 X-22.008 Y-1.002
G03 X-22.290 Y-1.129
G03 X-24.619 Y0.299
G03 X-23.225 Y1.024
G03 X-21.660 Y1.797
G03 X-19.305 Y3.126
G03 X-18.687 Y3.543
G03 X-18.243 Y3.957
G03 X-16.452 Y5.612
G03 X-16.313 Y5.837
G03 X-15.841 Y6.135
G03 X-15.246 Y6.448
G03 X-15.300 Y4.256
G03 X-16.049 Y3.294
G03 X-16.437 Y2.165
G03 X-16.693 Y1.063
G03 X-19.514 Y-0.590
G03 X-20.271 Y-0.792
G03 X-22.008 Y-1.002
G03 X-22.290 Y-1.129
G03 X-24.619 Y0.299
G03 X-23.225 Y1.024
G03 X-21.660 Y1.797
G03 X-19.305 Y3.126
G03 X-18.687 Y3.543
G03 X-18.243 Y3.957
G03 X-16.452 Y5.612
G03 X-16.313 Y5.837
G03 X-15.841 Y6.135
G03 X-15.246 Y6.448
G03 X27.855 Y7.832
G03 X27.584 Y7.790
G03 X25.972 Y7.508
G03 X25.728 Y7.391
G03 X24.145 Y6.697
G03 X23.777 Y6.514
G03 X15.509 Y4.262
G03 X13.758 Y3.787
G03 X4.158 Y2.766
G03 X3.749 Y2.643
G03 X-5.717 Y3.192
G03 X-6.787 Y3.304
G03 X-10.564 Y4.243
G03 X-11.465 Y4.550
G03 X-13.365 Y6.848
G03 X-14.247 Y7.345
G03 X-15.046 Y7.213
G03 X-17.845 Y5.100
G03 X-20.846 Y2.898
G03 X-21.516 Y2.495
G03 X-24.377 Y1.045
G03 X-24.425 Y0.966
G03 X-25.822 Y0.232
G03 X-26.539 Y-0.319
G03 X-27.991 Y-1.227
G03 X-28.000 Y-1.725
G03 X-27.553 Y-2.004
G03 X-24.879 Y-2.196
G03 X-23.904 Y-2.113
G03 X-22.151 Y-1.745
G03 X-16.096 Y-5.148
G03 X-15.738 Y-5.831
G03 X-14.778 Y-6.680
G03 X-13.895 Y-6.864
G03 X-13.463 Y-6.579
G03 X-12.619 Y-4.569
G03 X-11.941 Y-0.793
G03 X-12.090 Y3.204
G03 X-9.891 Y3.344
G03 X-6.166 Y2.644
G03 X-2.926 Y2.116
G03 X0.645 Y2.033
G03 X4.216 Y2.062
G03 X4.347 Y2.097
G03 X10.642 Y2.644
G03 X11.940 Y2.853
G03 X14.283 Y3.311
G03 X15.390 Y3.609
G03 X16.931 Y3.955
G03 X18.489 Y4.317
G03 X22.060 Y5.216
G03 X22.958 Y5.609
G03 X24.743 Y6.289
G03 X25.736 Y6.777
G03 X23.253 Y4.507
G03 X23.232 Y4.142
G03 X22.787 Y-0.208
G03 X22.640 Y-3.459
G03 X20.839 Y-1.465
G03 X20.682 Y-1.237
G03 X19.840 Y-0.925
G03 X13.072 Y-0.454
G03 X10.649 Y-0.471
G03 X7.846 Y-0.722
G03 X5.050 Y-1.107
G03 X3.455 Y-1.367
G03 X-7.873 Y-1.807
G03 X-8.155 Y-1.950
G03 X-8.340 Y-2.238
G03 X-8.451 Y-2.558
G03 X-9.444 Y-6.245
G03 X-9.576 Y-7.500
G03 X-9.514 Y-7.770
G03 X-9.416 Y-7.832
