%
(Header)
(Generated by gcodetools from Inkscape.)
(Using default header. To add your own header create file "header" in the output dir.)
M3
(Header end.)
G21 (All units in mm)

(Start cutting path id: path50)
(Change tool to Default tool)

G00 Z4.000000
G00 X86.609375 Y29.431641

G01 Z-1.000000 F100.0(Penetrate)
G03 X86.488367 Y29.477271 Z-1.000000 I-0.108576 J-0.104670 F400.000000
G03 X86.115234 Y29.419921 Z-1.000000 I0.222515 J-2.690269
G02 X85.539241 Y29.308726 Z-1.000000 I-2.038097 J9.009961
G02 X84.708984 Y29.193358 Z-1.000000 I-3.177964 J19.825344
G03 X83.900650 Y29.032785 Z-1.000000 I0.611302 J-5.192214
G03 X83.564453 Y28.871093 Z-1.000000 I0.293749 J-1.041140
G02 X83.234804 Y28.679392 Z-1.000000 I-1.171992 J1.636073
G02 X82.314453 Y28.294921 Z-1.000000 I-5.777380 J12.536155
G03 X81.388446 Y27.917786 Z-1.000000 I6.471644 J-17.215720
G03 X80.882812 Y27.666015 Z-1.000000 I2.365141 J-5.383550
G02 X80.374890 Y27.422441 Z-1.000000 I-2.187991 J3.911224
G02 X79.425781 Y27.076171 Z-1.000000 I-5.500384 J13.602414
G02 X75.259993 Y25.857898 Z-1.000000 I-21.801821 J66.818190
G02 X71.173828 Y24.937499 Z-1.000000 I-16.382697 J63.201331
G03 X69.519162 Y24.571225 Z-1.000000 I5.624777 J-29.330990
G03 X67.113281 Y23.917968 Z-1.000000 I16.066614 J-63.928644
G02 X64.695288 Y23.354723 Z-1.000000 I-6.307003 J21.603960
G02 X62.427734 Y23.095702 Z-1.000000 I-3.292001 J18.764280
G03 X53.917752 Y22.515446 Z-1.000000 I16.062185 J-298.260096
G03 X53.355469 Y22.345702 Z-1.000000 I0.115447 J-1.398584
G02 X53.142977 Y22.287817 Z-1.000000 I-0.225529 J0.408937
G02 X49.148438 Y22.228515 Z-1.000000 I-4.264895 J152.716169
G02 X45.156551 Y22.368196 Z-1.000000 I-0.095465 J54.382837
G02 X42.748047 Y22.689452 Z-1.000000 I1.430403 J19.913030
G03 X40.345014 Y23.100068 Z-1.000000 I-9.665961 J-49.330853
G03 X38.875000 Y23.253905 Z-1.000000 I-2.622997 J-17.964064
G02 X36.596109 Y23.582867 Z-1.000000 I0.917192 J14.411862
G02 X34.417969 Y24.265624 Z-1.000000 I3.137727 J13.825765
G03 X33.683308 Y24.544602 Z-1.000000 I-6.875939 J-17.000268
G03 X32.445312 Y24.966796 Z-1.000000 I-17.073979 J-48.039750
G02 X31.301085 Y25.662078 Z-1.000000 I0.911364 J2.789004
G02 X30.664062 Y26.716796 Z-1.000000 I1.736071 J1.768275
G03 X29.833593 Y28.125144 Z-1.000000 I-3.283954 J-0.987441
G03 X28.621094 Y28.808593 Z-1.000000 I-1.776902 J-1.735116
G03 X27.523720 Y28.626660 Z-1.000000 I-0.329605 J-1.412420
G03 X23.675781 Y25.722655 Z-1.000000 I14.412386 J-23.098414
G02 X20.887496 Y23.363244 Z-1.000000 I-37.272267 J41.220039
G02 X20.238281 Y23.001952 Z-1.000000 I-1.432835 J1.810758
G03 X19.551719 Y22.696373 Z-1.000000 I1.759933 J-4.878196
G03 X18.630859 Y22.142577 Z-1.000000 I5.055001 J-9.448043
G02 X17.705278 Y21.592312 Z-1.000000 I-5.439186 J8.095487
G02 X16.183594 Y20.865233 Z-1.000000 I-11.026209 J21.120563
G03 X14.698108 Y20.149550 Z-1.000000 I8.516897 J-19.577348
G03 X14.632812 Y20.041015 Z-1.000000 I0.057556 J-0.108535
G02 X14.568792 Y19.933371 Z-1.000000 I-0.122504 J-0.000001
G02 X13.644531 Y19.505858 Z-1.000000 I-3.773733 J6.945757
G03 X12.711651 Y19.032589 Z-1.000000 I1.875301 J-4.852537
G03 X11.726562 Y18.275390 Z-1.000000 I3.943409 J-6.149618
G02 X10.768399 Y17.502665 Z-1.000000 I-6.721572 J7.354202
G02 X10.533203 Y17.427733 Z-1.000000 I-0.235196 J0.331647
G03 X9.731601 Y17.026800 Z-1.000000 I0.000000 J-1.001805
G03 X9.718750 Y16.341796 Z-1.000000 I0.468814 J-0.351418
G03 X10.333588 Y15.958593 Z-1.000000 I0.751008 J0.520125
G03 X14.007812 Y15.695311 Z-1.000000 I3.519638 J23.348761
G03 X15.348429 Y15.809722 Z-1.000000 I-0.055576 J8.562797
G03 X17.757812 Y16.314452 Z-1.000000 I-4.699422 J28.436285
G02 X20.170027 Y16.800056 Z-1.000000 I6.004136 J-23.591167
G02 X22.388672 Y17.005858 Z-1.000000 I2.958203 J-19.828938
G02 X24.195923 Y16.287524 Z-1.000000 I0.088913 J-2.408896
G02 X25.476562 Y13.867187 Z-1.000000 I-3.406430 J-3.351368
G03 X26.080278 Y11.638068 Z-1.000000 I16.571144 J3.291678
G03 X26.572266 Y10.699218 Z-1.000000 I3.356169 J1.160408
G03 X27.891607 Y9.531301 Z-1.000000 I3.350396 J2.455628
G03 X29.105469 Y9.279296 Z-1.000000 I1.005517 J1.793912
G03 X29.699051 Y9.670260 Z-1.000000 I-0.077829 J0.764250
G03 X30.859375 Y12.433593 Z-1.000000 I-11.944294 J6.640690
G03 X31.791552 Y17.623651 Z-1.000000 I-23.039276 J6.816784
G03 X31.585938 Y23.117187 Z-1.000000 I-26.124374 J1.772825
G02 X31.851262 Y23.936820 Z-1.000000 I0.968961 J0.139098
G02 X32.490234 Y24.052733 Z-1.000000 I0.400218 J-0.387077
G03 X34.608958 Y23.309819 Z-1.000000 I4.552713 J9.591267
G03 X39.728516 Y22.347655 Z-1.000000 I13.116332 J55.689054
G02 X41.804874 Y22.021334 Z-1.000000 I-9.383982 J-66.478621
G02 X42.990234 Y21.783202 Z-1.000000 I-3.862987 J-22.298247
G03 X44.182082 Y21.621264 Z-1.000000 I1.493867 J6.527808
G03 X49.089844 Y21.507811 Z-1.000000 I5.031595 J111.450155
G03 X53.998248 Y21.547814 Z-1.000000 I0.293895 J265.094084
G03 X54.177734 Y21.595701 Z-1.000000 I-0.006711 J0.385460
G02 X54.356905 Y21.650050 Z-1.000000 I0.217368 J-0.394085
G02 X58.593750 Y21.972654 Z-1.000000 I20.085823 J-235.809044
G03 X62.830551 Y22.347705 Z-1.000000 I-6.695441 J99.754078
G03 X64.613281 Y22.634764 Z-1.000000 I-1.971847 J17.924979
G02 X66.386920 Y22.995833 Z-1.000000 I21.153769 J-99.374626
G02 X67.113281 Y23.121092 Z-1.000000 I3.323256 J-17.102424
G03 X67.834573 Y23.264099 Z-1.000000 I-1.188987 J7.887490
G03 X69.355469 Y23.673826 Z-1.000000 I-8.849075 J35.875127
G02 X70.875221 Y24.081269 Z-1.000000 I9.801148 J-33.520021
G02 X71.173828 Y24.117186 Z-1.000000 I0.298614 J-1.223372
G03 X71.473435 Y24.149336 Z-1.000000 I0.000008 J1.412034
G03 X73.615234 Y24.646482 Z-1.000000 I-16.338625 J75.252050
G02 X75.756555 Y25.165419 Z-1.000000 I57.543449 J-232.767401
G02 X77.154297 Y25.486326 Z-1.000000 I22.126968 J-93.171860
G03 X78.523484 Y25.882266 Z-1.000000 I-2.438121 J10.996533
G03 X79.757812 Y26.421873 Z-1.000000 I-3.384608 J9.423683
G02 X80.981642 Y26.986212 Z-1.000000 I6.563448 J-12.624364
G02 X81.597656 Y27.167967 Z-1.000000 I1.234425 J-3.048995
G03 X82.210523 Y27.357333 Z-1.000000 I-0.546536 J2.855254
G03 X83.576172 Y28.027342 Z-1.000000 I-6.613210 J15.206167
G02 X85.356905 Y28.712639 Z-1.000000 I3.420176 J-6.231024
G02 X85.701172 Y28.531248 Z-1.000000 I0.068239 J-0.287880
G02 X85.285482 Y27.184383 Z-1.000000 I-1.062136 J-0.409768
G02 X81.289062 Y25.488279 Z-1.000000 I-6.128580 J8.884069
G03 X80.163504 Y24.907922 Z-1.000000 I0.457088 J-2.268133
G03 X80.134766 Y24.406248 Z-1.000000 I0.249380 J-0.265945
G02 X80.359631 Y23.724750 Z-1.000000 I-0.729987 J-0.618711
G02 X79.890625 Y20.679686 Z-1.000000 I-17.658651 J1.161163
G03 X79.522019 Y18.427928 Z-1.000000 I14.276383 J-3.493053
G03 X79.320312 Y13.958982 Z-1.000000 I56.506990 J-4.789477
G02 X79.225217 Y9.499212 Z-1.000000 I-142.319428 J0.803771
G02 X79.148438 Y9.335936 Z-1.000000 I-0.230109 J0.008516
G02 X78.411124 Y9.520776 Z-1.000000 I-0.305936 J0.342609
G02 X77.208984 Y14.640623 Z-1.000000 I20.629338 J7.544825
G03 X76.844450 Y16.699704 Z-1.000000 I-16.098972 J-1.788309
G03 X76.628906 Y17.013670 Z-1.000000 I-0.522559 J-0.127776
G03 X75.471795 Y17.442497 Z-1.000000 I-1.409726 J-2.028346
G03 X66.169922 Y18.089842 Z-1.000000 I-14.465598 J-140.705880
G03 X62.840026 Y18.065381 Z-1.000000 I-1.386277 J-37.948246
G03 X58.986328 Y17.720701 Z-1.000000 I2.606449 J-50.856894
G03 X55.143595 Y17.192374 Z-1.000000 I26.096731 J-204.050796
G03 X52.951172 Y16.833982 Z-1.000000 I10.119216 J-68.788398
G02 X50.751212 Y16.586756 Z-1.000000 I-2.967180 J16.491802
G02 X44.031250 Y16.423826 Z-1.000000 I-7.137703 J155.728816
G03 X37.381841 Y16.230074 Z-1.000000 I0.337116 J-125.767446
G03 X36.994141 Y16.033201 Z-1.000000 I0.030003 J-0.539268
G03 X36.740719 Y15.637056 Z-1.000000 I1.550736 J-1.271171
G03 X36.587891 Y15.197264 Z-1.000000 I1.792296 J-0.869272
G02 X36.471418 Y14.736064 Z-1.000000 I-7.727137 J1.706134
G02 X36.191406 Y13.802732 Z-1.000000 I-33.383667 J9.506864
G03 X35.222898 Y10.129419 Z-1.000000 I37.984453 J-11.979344
G03 X35.041016 Y8.404295 Z-1.000000 I8.090350 J-1.725124
G03 X35.126650 Y8.033593 Z-1.000000 I0.845184 J0.000000
G03 X35.261719 Y7.949217 Z-1.000000 I0.135069 J0.065921
G03 X35.656849 Y8.243929 Z-1.000000 I0.000000 J0.412237
G03 X36.992188 Y13.763670 Z-1.000000 I-52.624123 J15.652257
G02 X37.334635 Y15.170043 Z-1.000000 I13.368753 J-2.510369
G02 X37.486328 Y15.408201 Z-1.000000 I0.497792 J-0.149676
G02 X37.744367 Y15.511947 Z-1.000000 I0.272764 J-0.305652
G02 X42.257812 Y15.580076 Z-1.000000 I3.889650 J-108.144836
G03 X51.943762 Y15.842613 Z-1.000000 I0.849818 J147.453515
G03 X54.410156 Y16.308592 Z-1.000000 I-0.594831 J9.908613
G02 X58.413651 Y17.059243 Z-1.000000 I4.914395 J-15.158887
G02 X69.970703 Y17.199217 Z-1.000000 I7.329930 J-128.022665
G02 X75.182977 Y15.677713 Z-1.000000 I-0.360265 J-10.922871
G02 X76.697266 Y13.212889 Z-1.000000 I-1.582479 J-2.669783
G03 X76.948045 Y10.662674 Z-1.000000 I40.046148 J2.650554
G03 X77.105469 Y10.085936 Z-1.000000 I2.177953 J0.284632
G03 X78.110504 Y8.703204 Z-1.000000 I3.515677 J1.498742
G03 X79.132812 Y8.320310 Z-1.000000 I1.022308 J1.173307
G03 X79.660847 Y8.753715 Z-1.000000 I-0.000001 J0.538366
G03 X80.130859 Y13.337889 Z-1.000000 I-24.064688 J4.783518
G02 X80.411027 Y18.777346 Z-1.000000 I62.849919 J-0.510238
G02 X80.873047 Y21.144529 Z-1.000000 I12.275953 J-1.167308
G03 X81.014677 Y21.804240 Z-1.000000 I-4.083520 J1.221726
G03 X81.156250 Y23.281248 Z-1.000000 I-20.053356 J2.667433
G01 X81.244140 Y24.767576 Z-1.000000
G01 X82.408202 Y25.085936 Z-1.000000
G03 X85.821574 Y26.918930 Z-1.000000 I-2.286615 J8.352758
G03 X86.687499 Y28.826170 Z-1.000000 I-1.667429 J1.907240
G03 X86.666830 Y29.305231 Z-1.000000 I-5.562054 J-0.000000
G03 X86.609369 Y29.431639 Z-1.000000 I-0.207175 J-0.017911
G01 X86.609375 Y29.431641 Z-1.000000
G00 Z4.000000

(End cutting path id: path50)


(Start cutting path id: path50)
(Change tool to Default tool)

G00 Z4.000000
G00 X86.609375 Y29.431641

G01 Z-1.000000 F100.0(Penetrate)
G03 X86.488367 Y29.477271 Z-1.000000 I-0.108576 J-0.104670 F400.000000
G03 X86.115234 Y29.419921 Z-1.000000 I0.222515 J-2.690269
G02 X85.539241 Y29.308726 Z-1.000000 I-2.038097 J9.009961
G02 X84.708984 Y29.193358 Z-1.000000 I-3.177964 J19.825344
G03 X83.900650 Y29.032785 Z-1.000000 I0.611302 J-5.192214
G03 X83.564453 Y28.871093 Z-1.000000 I0.293749 J-1.041140
G02 X83.234804 Y28.679392 Z-1.000000 I-1.171992 J1.636073
G02 X82.314453 Y28.294921 Z-1.000000 I-5.777380 J12.536155
G03 X81.388446 Y27.917786 Z-1.000000 I6.471644 J-17.215720
G03 X80.882812 Y27.666015 Z-1.000000 I2.365141 J-5.383550
G02 X80.374890 Y27.422441 Z-1.000000 I-2.187991 J3.911224
G02 X79.425781 Y27.076171 Z-1.000000 I-5.500384 J13.602414
G02 X75.259993 Y25.857898 Z-1.000000 I-21.801821 J66.818190
G02 X71.173828 Y24.937499 Z-1.000000 I-16.382697 J63.201331
G03 X69.519162 Y24.571225 Z-1.000000 I5.624777 J-29.330990
G03 X67.113281 Y23.917968 Z-1.000000 I16.066614 J-63.928644
G02 X64.695288 Y23.354723 Z-1.000000 I-6.307003 J21.603960
G02 X62.427734 Y23.095702 Z-1.000000 I-3.292001 J18.764280
G03 X53.917752 Y22.515446 Z-1.000000 I16.062185 J-298.260096
G03 X53.355469 Y22.345702 Z-1.000000 I0.115447 J-1.398584
G02 X53.142977 Y22.287817 Z-1.000000 I-0.225529 J0.408937
G02 X49.148438 Y22.228515 Z-1.000000 I-4.264895 J152.716169
G02 X45.156551 Y22.368196 Z-1.000000 I-0.095465 J54.382837
G02 X42.748047 Y22.689452 Z-1.000000 I1.430403 J19.913030
G03 X40.345014 Y23.100068 Z-1.000000 I-9.665961 J-49.330853
G03 X38.875000 Y23.253905 Z-1.000000 I-2.622997 J-17.964064
G02 X36.596109 Y23.582867 Z-1.000000 I0.917192 J14.411862
G02 X34.417969 Y24.265624 Z-1.000000 I3.137727 J13.825765
G03 X33.683308 Y24.544602 Z-1.000000 I-6.875939 J-17.000268
G03 X32.445312 Y24.966796 Z-1.000000 I-17.073979 J-48.039750
G02 X31.301085 Y25.662078 Z-1.000000 I0.911364 J2.789004
G02 X30.664062 Y26.716796 Z-1.000000 I1.736071 J1.768275
G03 X29.833593 Y28.125144 Z-1.000000 I-3.283954 J-0.987441
G03 X28.621094 Y28.808593 Z-1.000000 I-1.776902 J-1.735116
G03 X27.523720 Y28.626660 Z-1.000000 I-0.329605 J-1.412420
G03 X23.675781 Y25.722655 Z-1.000000 I14.412386 J-23.098414
G02 X20.887496 Y23.363244 Z-1.000000 I-37.272267 J41.220039
G02 X20.238281 Y23.001952 Z-1.000000 I-1.432835 J1.810758
G03 X19.551719 Y22.696373 Z-1.000000 I1.759933 J-4.878196
G03 X18.630859 Y22.142577 Z-1.000000 I5.055001 J-9.448043
G02 X17.705278 Y21.592312 Z-1.000000 I-5.439186 J8.095487
G02 X16.183594 Y20.865233 Z-1.000000 I-11.026209 J21.120563
G03 X14.698108 Y20.149550 Z-1.000000 I8.516897 J-19.577348
G03 X14.632812 Y20.041015 Z-1.000000 I0.057556 J-0.108535
G02 X14.568792 Y19.933371 Z-1.000000 I-0.122504 J-0.000001
G02 X13.644531 Y19.505858 Z-1.000000 I-3.773733 J6.945757
G03 X12.711651 Y19.032589 Z-1.000000 I1.875301 J-4.852537
G03 X11.726562 Y18.275390 Z-1.000000 I3.943409 J-6.149618
G02 X10.768399 Y17.502665 Z-1.000000 I-6.721572 J7.354202
G02 X10.533203 Y17.427733 Z-1.000000 I-0.235196 J0.331647
G03 X9.731601 Y17.026800 Z-1.000000 I0.000000 J-1.001805
G03 X9.718750 Y16.341796 Z-1.000000 I0.468814 J-0.351418
G03 X10.333588 Y15.958593 Z-1.000000 I0.751008 J0.520125
G03 X14.007812 Y15.695311 Z-1.000000 I3.519638 J23.348761
G03 X15.348429 Y15.809722 Z-1.000000 I-0.055576 J8.562797
G03 X17.757812 Y16.314452 Z-1.000000 I-4.699422 J28.436285
G02 X20.170027 Y16.800056 Z-1.000000 I6.004136 J-23.591167
G02 X22.388672 Y17.005858 Z-1.000000 I2.958203 J-19.828938
G02 X24.195923 Y16.287524 Z-1.000000 I0.088913 J-2.408896
G02 X25.476562 Y13.867187 Z-1.000000 I-3.406430 J-3.351368
G03 X26.080278 Y11.638068 Z-1.000000 I16.571144 J3.291678
G03 X26.572266 Y10.699218 Z-1.000000 I3.356169 J1.160408
G03 X27.891607 Y9.531301 Z-1.000000 I3.350396 J2.455628
G03 X29.105469 Y9.279296 Z-1.000000 I1.005517 J1.793912
G03 X29.699051 Y9.670260 Z-1.000000 I-0.077829 J0.764250
G03 X30.859375 Y12.433593 Z-1.000000 I-11.944294 J6.640690
G03 X31.791552 Y17.623651 Z-1.000000 I-23.039276 J6.816784
G03 X31.585938 Y23.117187 Z-1.000000 I-26.124374 J1.772825
G02 X31.851262 Y23.936820 Z-1.000000 I0.968961 J0.139098
G02 X32.490234 Y24.052733 Z-1.000000 I0.400218 J-0.387077
G03 X34.608958 Y23.309819 Z-1.000000 I4.552713 J9.591267
G03 X39.728516 Y22.347655 Z-1.000000 I13.116332 J55.689054
G02 X41.804874 Y22.021334 Z-1.000000 I-9.383982 J-66.478621
G02 X42.990234 Y21.783202 Z-1.000000 I-3.862987 J-22.298247
G03 X44.182082 Y21.621264 Z-1.000000 I1.493867 J6.527808
G03 X49.089844 Y21.507811 Z-1.000000 I5.031595 J111.450155
G03 X53.998248 Y21.547814 Z-1.000000 I0.293895 J265.094084
G03 X54.177734 Y21.595701 Z-1.000000 I-0.006711 J0.385460
G02 X54.356905 Y21.650050 Z-1.000000 I0.217368 J-0.394085
G02 X58.593750 Y21.972654 Z-1.000000 I20.085823 J-235.809044
G03 X62.830551 Y22.347705 Z-1.000000 I-6.695441 J99.754078
G03 X64.613281 Y22.634764 Z-1.000000 I-1.971847 J17.924979
G02 X66.386920 Y22.995833 Z-1.000000 I21.153769 J-99.374626
G02 X67.113281 Y23.121092 Z-1.000000 I3.323256 J-17.102424
G03 X67.834573 Y23.264099 Z-1.000000 I-1.188987 J7.887490
G03 X69.355469 Y23.673826 Z-1.000000 I-8.849075 J35.875127
G02 X70.875221 Y24.081269 Z-1.000000 I9.801148 J-33.520021
G02 X71.173828 Y24.117186 Z-1.000000 I0.298614 J-1.223372
G03 X71.473435 Y24.149336 Z-1.000000 I0.000008 J1.412034
G03 X73.615234 Y24.646482 Z-1.000000 I-16.338625 J75.252050
G02 X75.756555 Y25.165419 Z-1.000000 I57.543449 J-232.767401
G02 X77.154297 Y25.486326 Z-1.000000 I22.126968 J-93.171860
G03 X78.523484 Y25.882266 Z-1.000000 I-2.438121 J10.996533
G03 X79.757812 Y26.421873 Z-1.000000 I-3.384608 J9.423683
G02 X80.981642 Y26.986212 Z-1.000000 I6.563448 J-12.624364
G02 X81.597656 Y27.167967 Z-1.000000 I1.234425 J-3.048995
G03 X82.210523 Y27.357333 Z-1.000000 I-0.546536 J2.855254
G03 X83.576172 Y28.027342 Z-1.000000 I-6.613210 J15.206167
G02 X85.356905 Y28.712639 Z-1.000000 I3.420176 J-6.231024
G02 X85.701172 Y28.531248 Z-1.000000 I0.068239 J-0.287880
G02 X85.285482 Y27.184383 Z-1.000000 I-1.062136 J-0.409768
G02 X81.289062 Y25.488279 Z-1.000000 I-6.128580 J8.884069
G03 X80.163504 Y24.907922 Z-1.000000 I0.457088 J-2.268133
G03 X80.134766 Y24.406248 Z-1.000000 I0.249380 J-0.265945
G02 X80.359631 Y23.724750 Z-1.000000 I-0.729987 J-0.618711
G02 X79.890625 Y20.679686 Z-1.000000 I-17.658651 J1.161163
G03 X79.522019 Y18.427928 Z-1.000000 I14.276383 J-3.493053
G03 X79.320312 Y13.958982 Z-1.000000 I56.506990 J-4.789477
G02 X79.225217 Y9.499212 Z-1.000000 I-142.319428 J0.803771
G02 X79.148438 Y9.335936 Z-1.000000 I-0.230109 J0.008516
G02 X78.411124 Y9.520776 Z-1.000000 I-0.305936 J0.342609
G02 X77.208984 Y14.640623 Z-1.000000 I20.629338 J7.544825
G03 X76.844450 Y16.699704 Z-1.000000 I-16.098972 J-1.788309
G03 X76.628906 Y17.013670 Z-1.000000 I-0.522559 J-0.127776
G03 X75.471795 Y17.442497 Z-1.000000 I-1.409726 J-2.028346
G03 X66.169922 Y18.089842 Z-1.000000 I-14.465598 J-140.705880
G03 X62.840026 Y18.065381 Z-1.000000 I-1.386277 J-37.948246
G03 X58.986328 Y17.720701 Z-1.000000 I2.606449 J-50.856894
G03 X55.143595 Y17.192374 Z-1.000000 I26.096731 J-204.050796
G03 X52.951172 Y16.833982 Z-1.000000 I10.119216 J-68.788398
G02 X50.751212 Y16.586756 Z-1.000000 I-2.967180 J16.491802
G02 X44.031250 Y16.423826 Z-1.000000 I-7.137703 J155.728816
G03 X37.381841 Y16.230074 Z-1.000000 I0.337116 J-125.767446
G03 X36.994141 Y16.033201 Z-1.000000 I0.030003 J-0.539268
G03 X36.740719 Y15.637056 Z-1.000000 I1.550736 J-1.271171
G03 X36.587891 Y15.197264 Z-1.000000 I1.792296 J-0.869272
G02 X36.471418 Y14.736064 Z-1.000000 I-7.727137 J1.706134
G02 X36.191406 Y13.802732 Z-1.000000 I-33.383667 J9.506864
G03 X35.222898 Y10.129419 Z-1.000000 I37.984453 J-11.979344
G03 X35.041016 Y8.404295 Z-1.000000 I8.090350 J-1.725124
G03 X35.126650 Y8.033593 Z-1.000000 I0.845184 J0.000000
G03 X35.261719 Y7.949217 Z-1.000000 I0.135069 J0.065921
G03 X35.656849 Y8.243929 Z-1.000000 I0.000000 J0.412237
G03 X36.992188 Y13.763670 Z-1.000000 I-52.624123 J15.652257
G02 X37.334635 Y15.170043 Z-1.000000 I13.368753 J-2.510369
G02 X37.486328 Y15.408201 Z-1.000000 I0.497792 J-0.149676
G02 X37.744367 Y15.511947 Z-1.000000 I0.272764 J-0.305652
G02 X42.257812 Y15.580076 Z-1.000000 I3.889650 J-108.144836
G03 X51.943762 Y15.842613 Z-1.000000 I0.849818 J147.453515
G03 X54.410156 Y16.308592 Z-1.000000 I-0.594831 J9.908613
G02 X58.413651 Y17.059243 Z-1.000000 I4.914395 J-15.158887
G02 X69.970703 Y17.199217 Z-1.000000 I7.329930 J-128.022665
G02 X75.182977 Y15.677713 Z-1.000000 I-0.360265 J-10.922871
G02 X76.697266 Y13.212889 Z-1.000000 I-1.582479 J-2.669783
G03 X76.948045 Y10.662674 Z-1.000000 I40.046148 J2.650554
G03 X77.105469 Y10.085936 Z-1.000000 I2.177953 J0.284632
G03 X78.110504 Y8.703204 Z-1.000000 I3.515677 J1.498742
G03 X79.132812 Y8.320310 Z-1.000000 I1.022308 J1.173307
G03 X79.660847 Y8.753715 Z-1.000000 I-0.000001 J0.538366
G03 X80.130859 Y13.337889 Z-1.000000 I-24.064688 J4.783518
G02 X80.411027 Y18.777346 Z-1.000000 I62.849919 J-0.510238
G02 X80.873047 Y21.144529 Z-1.000000 I12.275953 J-1.167308
G03 X81.014677 Y21.804240 Z-1.000000 I-4.083520 J1.221726
G03 X81.156250 Y23.281248 Z-1.000000 I-20.053356 J2.667433
G01 X81.244140 Y24.767576 Z-1.000000
G01 X82.408202 Y25.085936 Z-1.000000
G03 X85.821574 Y26.918930 Z-1.000000 I-2.286615 J8.352758
G03 X86.687499 Y28.826170 Z-1.000000 I-1.667429 J1.907240
G03 X86.666830 Y29.305231 Z-1.000000 I-5.562054 J-0.000000
G03 X86.609369 Y29.431639 Z-1.000000 I-0.207175 J-0.017911
G01 X86.609375 Y29.431641 Z-1.000000
G00 Z4.000000

(End cutting path id: path50)


(Start cutting path id: path50)
(Change tool to Default tool)

G00 Z4.000000
G00 X30.119141 Y24.802734

G01 Z-1.000000 F100.0(Penetrate)
G02 X30.659368 Y24.164547 Z-1.000000 I-0.264137 J-0.771338 F400.000000
G02 X31.083984 Y18.972656 Z-1.000000 I-31.203547 J-5.165275
G02 X30.999999 Y17.156270 Z-1.000000 I-20.033776 J0.016178
G02 X30.753906 Y15.382812 Z-1.000000 I-19.268583 J1.769989
G03 X30.439189 Y13.615267 Z-1.000000 I110.870886 J-20.652708
G03 X30.281250 Y12.595703 Z-1.000000 I34.930772 J-5.933082
G02 X30.038931 Y11.608881 Z-1.000000 I-4.957744 J0.694238
G02 X29.619141 Y10.738281 Z-1.000000 I-4.268780 J1.521830
G02 X29.044651 Y9.989296 Z-1.000000 I-4.089386 J2.541839
G02 X28.789062 Y9.851562 Z-1.000000 I-0.332829 J0.311612
G02 X28.508493 Y9.906807 Z-1.000000 I-0.067906 J0.395205
G02 X27.607422 Y10.591797 Z-1.000000 I3.302911 J5.279975
G02 X26.905942 Y11.488571 Z-1.000000 I2.325532 J2.541835
G02 X26.316406 Y12.966797 Z-1.000000 I5.922480 J3.218635
G02 X25.405258 Y17.322479 Z-1.000000 I39.141844 J10.461072
G02 X25.554688 Y17.968750 Z-1.000000 I0.887291 J0.135252
G03 X25.627104 Y18.137456 Z-1.000000 I-0.379345 J0.262726
G03 X25.980469 Y20.015625 Z-1.000000 I-48.675925 J10.130378
G02 X26.780680 Y22.556970 Z-1.000000 I9.529238 J-1.603882
G02 X27.814453 Y23.878906 Z-1.000000 I3.468110 J-1.646930
G02 X29.343964 Y24.782976 Z-1.000000 I3.697077 J-4.508881
G02 X30.119141 Y24.802734 Z-1.000000 I0.414204 J-1.034371
G01 X30.119141 Y24.802734 Z-1.000000
G00 Z4.000000

(End cutting path id: path50)


(Start cutting path id: path50)
(Change tool to Default tool)

G00 Z4.000000
G00 X30.119141 Y24.802734

G01 Z-1.000000 F100.0(Penetrate)
G02 X30.659368 Y24.164547 Z-1.000000 I-0.264137 J-0.771338 F400.000000
G02 X31.083984 Y18.972656 Z-1.000000 I-31.203547 J-5.165275
G02 X30.999999 Y17.156270 Z-1.000000 I-20.033776 J0.016178
G02 X30.753906 Y15.382812 Z-1.000000 I-19.268583 J1.769989
G03 X30.439189 Y13.615267 Z-1.000000 I110.870886 J-20.652708
G03 X30.281250 Y12.595703 Z-1.000000 I34.930772 J-5.933082
G02 X30.038931 Y11.608881 Z-1.000000 I-4.957744 J0.694238
G02 X29.619141 Y10.738281 Z-1.000000 I-4.268780 J1.521830
G02 X29.044651 Y9.989296 Z-1.000000 I-4.089386 J2.541839
G02 X28.789062 Y9.851562 Z-1.000000 I-0.332829 J0.311612
G02 X28.508493 Y9.906807 Z-1.000000 I-0.067906 J0.395205
G02 X27.607422 Y10.591797 Z-1.000000 I3.302911 J5.279975
G02 X26.905942 Y11.488571 Z-1.000000 I2.325532 J2.541835
G02 X26.316406 Y12.966797 Z-1.000000 I5.922480 J3.218635
G02 X25.405258 Y17.322479 Z-1.000000 I39.141844 J10.461072
G02 X25.554688 Y17.968750 Z-1.000000 I0.887291 J0.135252
G03 X25.627104 Y18.137456 Z-1.000000 I-0.379345 J0.262726
G03 X25.980469 Y20.015625 Z-1.000000 I-48.675925 J10.130378
G02 X26.780680 Y22.556970 Z-1.000000 I9.529238 J-1.603882
G02 X27.814453 Y23.878906 Z-1.000000 I3.468110 J-1.646930
G02 X29.343964 Y24.782976 Z-1.000000 I3.697077 J-4.508881
G02 X30.119141 Y24.802734 Z-1.000000 I0.414204 J-1.034371
G01 X30.119141 Y24.802734 Z-1.000000
G00 Z4.000000

(End cutting path id: path50)


(Start cutting path id: path50)
(Change tool to Default tool)

G00 Z4.000000
G00 X28.033203 Y27.955078

G01 Z-1.000000 F100.0(Penetrate)
G02 X28.274641 Y27.926282 Z-1.000000 I0.058644 J-0.534853 F400.000000
G02 X28.722656 Y27.738281 Z-1.000000 I-1.629004 J-4.509823
G02 X29.820421 Y26.788560 Z-1.000000 I-1.199310 J-2.495563
G02 X30.003906 Y25.833984 Z-1.000000 I-1.029492 J-0.692808
G02 X29.839474 Y25.622260 Z-1.000000 I-0.302614 J0.065306
G02 X29.072266 Y25.369141 Z-1.000000 I-1.256362 J2.518786
G03 X27.174433 Y24.562831 Z-1.000000 I0.795906 J-4.509989
G03 X26.144531 Y23.240234 Z-1.000000 I1.781695 J-2.449689
G03 X25.611105 Y21.688979 Z-1.000000 I15.215191 J-6.099344
G03 X25.259766 Y20.173828 Z-1.000000 I14.027887 J-4.051155
G02 X24.225885 Y18.450214 Z-1.000000 I-2.767364 J0.488072
G02 X22.386719 Y17.921875 Z-1.000000 I-1.571428 J2.004926
G03 X21.382762 Y17.902408 Z-1.000000 I-0.424317 J-4.014854
G03 X20.341797 Y17.625000 Z-1.000000 I0.666092 J-4.591291
G02 X19.306183 Y17.336551 Z-1.000000 I-1.883978 J4.760721
G02 X18.621094 Y17.335938 Z-1.000000 I-0.344379 J2.049625
G03 X17.954363 Y17.336148 Z-1.000000 I-0.333998 J-2.010003
G03 X17.566406 Y17.162109 Z-1.000000 I0.136247 J-0.823139
G02 X17.173574 Y16.949228 Z-1.000000 I-0.772374 J0.956384
G02 X16.099609 Y16.685547 Z-1.000000 I-2.337070 J7.199856
G02 X11.776626 Y16.436066 Z-1.000000 I-3.290905 J19.445668
G02 X11.300781 Y16.937500 Z-1.000000 I0.026276 J0.501434
G02 X12.028948 Y18.371421 Z-1.000000 I1.775935 J0.000000
G02 X14.259766 Y19.099609 Z-1.000000 I2.230818 J-3.052981
G03 X14.365405 Y19.124763 Z-1.000000 I0.000000 J0.234398
G03 X16.281250 Y20.121094 Z-1.000000 I-40.451177 J80.123770
G02 X18.194543 Y21.123602 Z-1.000000 I56.973218 J-106.406741
G02 X18.281250 Y21.144531 Z-1.000000 I0.086707 J-0.169145
G03 X18.432711 Y21.183432 Z-1.000000 I-0.000000 J0.314304
G03 X21.669922 Y23.009766 Z-1.000000 I-82.596309 J150.185707
G03 X22.518361 Y23.583061 Z-1.000000 I-3.679660 J6.360119
G03 X23.128906 Y24.152344 Z-1.000000 I-2.978303 J3.806214
G02 X23.719509 Y24.750403 Z-1.000000 I6.900841 J-6.224154
G02 X24.673828 Y25.580078 Z-1.000000 I13.946463 J-15.077997
G03 X25.590574 Y26.427216 Z-1.000000 I-6.465235 J7.916076
G03 X25.781250 Y26.736328 Z-1.000000 I-0.626179 J0.599625
G02 X25.964227 Y27.008966 Z-1.000000 I0.626719 J-0.222893
G02 X26.175781 Y27.089844 Z-1.000000 I0.211554 J-0.236244
G03 X26.429975 Y27.144815 Z-1.000000 I-0.000000 J0.615196
G03 X27.248047 Y27.576172 Z-1.000000 I-3.225016 J7.107695
G02 X27.792664 Y27.882178 Z-1.000000 I4.963698 J-8.196525
G02 X28.033203 Y27.955078 Z-1.000000 I0.314996 J-0.606067
G01 X28.033203 Y27.955078 Z-1.000000
G00 Z4.000000

(End cutting path id: path50)


(Start cutting path id: path50)
(Change tool to Default tool)

G00 Z4.000000
G00 X28.033203 Y27.955078

G01 Z-1.000000 F100.0(Penetrate)
G02 X28.274641 Y27.926282 Z-1.000000 I0.058644 J-0.534853 F400.000000
G02 X28.722656 Y27.738281 Z-1.000000 I-1.629004 J-4.509823
G02 X29.820421 Y26.788560 Z-1.000000 I-1.199310 J-2.495563
G02 X30.003906 Y25.833984 Z-1.000000 I-1.029492 J-0.692808
G02 X29.839474 Y25.622260 Z-1.000000 I-0.302614 J0.065306
G02 X29.072266 Y25.369141 Z-1.000000 I-1.256362 J2.518786
G03 X27.174433 Y24.562831 Z-1.000000 I0.795906 J-4.509989
G03 X26.144531 Y23.240234 Z-1.000000 I1.781695 J-2.449689
G03 X25.611105 Y21.688979 Z-1.000000 I15.215191 J-6.099344
G03 X25.259766 Y20.173828 Z-1.000000 I14.027887 J-4.051155
G02 X24.225885 Y18.450214 Z-1.000000 I-2.767364 J0.488072
G02 X22.386719 Y17.921875 Z-1.000000 I-1.571428 J2.004926
G03 X21.382762 Y17.902408 Z-1.000000 I-0.424317 J-4.014854
G03 X20.341797 Y17.625000 Z-1.000000 I0.666092 J-4.591291
G02 X19.306183 Y17.336551 Z-1.000000 I-1.883978 J4.760721
G02 X18.621094 Y17.335938 Z-1.000000 I-0.344379 J2.049625
G03 X17.954363 Y17.336148 Z-1.000000 I-0.333998 J-2.010003
G03 X17.566406 Y17.162109 Z-1.000000 I0.136247 J-0.823139
G02 X17.173574 Y16.949228 Z-1.000000 I-0.772374 J0.956384
G02 X16.099609 Y16.685547 Z-1.000000 I-2.337070 J7.199856
G02 X11.776626 Y16.436066 Z-1.000000 I-3.290905 J19.445668
G02 X11.300781 Y16.937500 Z-1.000000 I0.026276 J0.501434
G02 X12.028948 Y18.371421 Z-1.000000 I1.775935 J0.000000
G02 X14.259766 Y19.099609 Z-1.000000 I2.230818 J-3.052981
G03 X14.365405 Y19.124763 Z-1.000000 I0.000000 J0.234398
G03 X16.281250 Y20.121094 Z-1.000000 I-40.451177 J80.123770
G02 X18.194543 Y21.123602 Z-1.000000 I56.973218 J-106.406741
G02 X18.281250 Y21.144531 Z-1.000000 I0.086707 J-0.169145
G03 X18.432711 Y21.183432 Z-1.000000 I-0.000000 J0.314304
G03 X21.669922 Y23.009766 Z-1.000000 I-82.596309 J150.185707
G03 X22.518361 Y23.583061 Z-1.000000 I-3.679660 J6.360119
G03 X23.128906 Y24.152344 Z-1.000000 I-2.978303 J3.806214
G02 X23.719509 Y24.750403 Z-1.000000 I6.900841 J-6.224154
G02 X24.673828 Y25.580078 Z-1.000000 I13.946463 J-15.077997
G03 X25.590574 Y26.427216 Z-1.000000 I-6.465235 J7.916076
G03 X25.781250 Y26.736328 Z-1.000000 I-0.626179 J0.599625
G02 X25.964227 Y27.008966 Z-1.000000 I0.626719 J-0.222893
G02 X26.175781 Y27.089844 Z-1.000000 I0.211554 J-0.236244
G03 X26.429975 Y27.144815 Z-1.000000 I-0.000000 J0.615196
G03 X27.248047 Y27.576172 Z-1.000000 I-3.225016 J7.107695
G02 X27.792664 Y27.882178 Z-1.000000 I4.963698 J-8.196525
G02 X28.033203 Y27.955078 Z-1.000000 I0.314996 J-0.606067
G01 X28.033203 Y27.955078 Z-1.000000
G00 Z4.000000

(End cutting path id: path50)


(Footer)
M5
G00 X0.0000 Y0.0000
M2
(Using default footer. To add your own footer create file "footer" in the output dir.)
(end)
%