(Generated from picasso_dog_plotter.svg)
(Global path merge, centered, width=56mm, belly start)
G21
G90
G03 X-13.732 Y-8.275
G03 X-14.967 Y-8.805
G03 X-19.899 Y-4.577
G03 X-28.000 Y0.705
G03 X-27.825 Y1.409
G03 X-24.832 Y1.590
G03 X-17.430 Y0.530
G03 X-17.430 Y0.530
G03 X-16.201 Y6.517
G03 X-15.141 Y7.577
G03 X-14.087 Y7.221
G03 X-12.853 Y3.349
G03 X-12.678 Y-5.282
G03 X-17.430 Y0.530
G03 X-16.027 Y-4.577
G03 X-14.967 Y-5.631
G03 X-13.383 Y-6.161
G03 X-9.685 Y8.456
G03 X-8.101 Y2.114
G03 X1.584 Y1.939
G03 X12.684 Y0.705
G03 X20.604 Y1.590
G03 X21.309 Y2.469
G03 X22.013 Y7.751
G03 X23.073 Y8.805
G03 X24.127 Y-5.107
G03 X26.771 Y-6.511
G03 X27.825 Y-7.571
G03 X28.000 Y-8.625
G03 X26.771 Y-8.625
G03 X21.839 Y-6.336
G03 X13.913 Y-4.222
G03 X5.107 Y-3.168
G03 X-2.463 Y-3.168
G03 X-12.503 Y-5.457
G03 X-13.208 Y-6.336
