%
(Header)
(Generated by gcodetools from Inkscape.)
(Using default header. To add your own header create file "header" in the output dir.)
M3
(Header end.)
G21 (All units in mm)

(Start cutting path id: path949)
(Change tool to Default tool)

G00 Z4.000000
G00 X19.742188 Y37.117188

G01 Z-1.000000 F100.0(Penetrate)
G03 X10.944172 Y34.596830 Z-1.000000 I0.948804 J-19.928219 F400.000000
G03 X4.076172 Y27.845703 Z-1.000000 I8.935966 J-15.959674
G03 X2.089836 Y14.554930 Z-1.000000 I15.682112 J-9.137545
G03 X10.148438 Y3.744141 Z-1.000000 I16.476539 J3.873053
G03 X22.053312 Y2.033871 Z-1.000000 I8.106821 J14.141135
G03 X31.685547 Y9.312500 Z-1.000000 I-3.513002 J14.661725
G01 X25.550781 Y13.429688 Z-1.000000
G02 X20.635246 Y9.258147 Z-1.000000 I-6.963411 J3.223454
G02 X14.267578 Y9.878906 Z-1.000000 I-2.377238 J8.584338
G02 X9.321480 Y15.975107 Z-1.000000 I4.267896 J8.517305
G02 X10.210938 Y23.726562 Z-1.000000 I10.401707 J2.733192
G02 X17.486942 Y29.448814 Z-1.000000 I10.063505 J-5.309081
G02 X26.623047 Y28.287109 Z-1.000000 I3.088002 J-12.220544
G02 X33.121815 Y19.832771 Z-1.000000 I-6.345539 J-11.602694
G02 X31.685547 Y9.312500 Z-1.000000 I-14.039848 J-3.441404
G01 X37.822266 Y5.193359 Z-1.000000
G03 X40.361064 Y21.255345 Z-1.000000 I-18.756730 J11.196374
G03 X30.740234 Y34.421875 Z-1.000000 I-20.107105 J-4.594081
G03 X25.315525 Y36.603499 Z-1.000000 I-9.882389 J-16.737812
G03 X19.742188 Y37.117188 Z-1.000000 I-4.616099 J-19.591802
G01 X19.742188 Y37.117188 Z-1.000000
G00 Z4.000000

(Change tool to Default tool)

G00 Z4.000000
G00 X25.550781 Y13.429688

G01 Z-1.000000 F100.0(Penetrate)
G01 X25.550781 Y13.431688 Z-1.000000 F400.000000
G03 X25.908182 Y18.418274 Z-1.000000 I-6.409774 J2.965505
G03 X22.503906 Y22.150438 Z-1.000000 I-5.572549 J-1.664295
G03 X18.891827 Y22.256476 Z-1.000000 I-1.950074 J-4.853400
G03 X16.347656 Y19.607469 Z-1.000000 I1.258284 J-3.754733
G03 X16.459944 Y17.350444 Z-1.000000 I3.322058 J-0.966033
G03 X18.384766 Y16.015672 Z-1.000000 I1.976471 J0.794951
G03 X19.451430 Y16.363198 Z-1.000000 I0.040869 J1.685282
G03 X19.414062 Y17.548875 Z-1.000000 I-0.444304 J0.579425
G01 X25.550781 Y13.429688 Z-1.000000
G00 Z4.000000

(End cutting path id: path949)


(Start cutting path id: path949)
(Change tool to Default tool)

G00 Z4.000000
G00 X19.742188 Y37.117188

G01 Z-1.000000 F100.0(Penetrate)
G03 X10.944172 Y34.596830 Z-1.000000 I0.948804 J-19.928219 F400.000000
G03 X4.076172 Y27.845703 Z-1.000000 I8.935966 J-15.959674
G03 X2.089836 Y14.554930 Z-1.000000 I15.682112 J-9.137545
G03 X10.148438 Y3.744141 Z-1.000000 I16.476539 J3.873053
G03 X22.053312 Y2.033871 Z-1.000000 I8.106821 J14.141135
G03 X31.685547 Y9.312500 Z-1.000000 I-3.513002 J14.661725
G01 X25.550781 Y13.429688 Z-1.000000
G02 X20.635246 Y9.258147 Z-1.000000 I-6.963411 J3.223454
G02 X14.267578 Y9.878906 Z-1.000000 I-2.377238 J8.584338
G02 X9.321480 Y15.975107 Z-1.000000 I4.267896 J8.517305
G02 X10.210938 Y23.726562 Z-1.000000 I10.401707 J2.733192
G02 X17.486942 Y29.448814 Z-1.000000 I10.063505 J-5.309081
G02 X26.623047 Y28.287109 Z-1.000000 I3.088002 J-12.220544
G02 X33.121815 Y19.832771 Z-1.000000 I-6.345539 J-11.602694
G02 X31.685547 Y9.312500 Z-1.000000 I-14.039848 J-3.441404
G01 X37.822266 Y5.193359 Z-1.000000
G03 X40.361064 Y21.255345 Z-1.000000 I-18.756730 J11.196374
G03 X30.740234 Y34.421875 Z-1.000000 I-20.107105 J-4.594081
G03 X25.315525 Y36.603499 Z-1.000000 I-9.882389 J-16.737812
G03 X19.742188 Y37.117188 Z-1.000000 I-4.616099 J-19.591802
G01 X19.742188 Y37.117188 Z-1.000000
G00 Z4.000000

(Change tool to Default tool)

G00 Z4.000000
G00 X25.550781 Y13.429688

G01 Z-1.000000 F100.0(Penetrate)
G01 X25.550781 Y13.431688 Z-1.000000 F400.000000
G03 X25.908182 Y18.418274 Z-1.000000 I-6.409774 J2.965505
G03 X22.503906 Y22.150438 Z-1.000000 I-5.572549 J-1.664295
G03 X18.891827 Y22.256476 Z-1.000000 I-1.950074 J-4.853400
G03 X16.347656 Y19.607469 Z-1.000000 I1.258284 J-3.754733
G03 X16.459944 Y17.350444 Z-1.000000 I3.322058 J-0.966033
G03 X18.384766 Y16.015672 Z-1.000000 I1.976471 J0.794951
G03 X19.451430 Y16.363198 Z-1.000000 I0.040869 J1.685282
G03 X19.414062 Y17.548875 Z-1.000000 I-0.444304 J0.579425
G01 X25.550781 Y13.429688 Z-1.000000
G00 Z4.000000

(End cutting path id: path949)


(Footer)
M5
G00 X0.0000 Y0.0000
M2
(Using default footer. To add your own footer create file "footer" in the output dir.)
(end)
%