%
(Header)
(Generated by gcodetools from Inkscape.)
(Using default header. To add your own header create file "header" in the output dir.)
M3
(Header end.)
G21 (All units in mm)

(Start cutting path id: path648)
(Change tool to Default tool)

G00 Z4.000000
G00 X71.507812 Y41.097656

G01 Z-1.000000 F100.0(Penetrate)
G03 X69.287251 Y40.547911 Z-1.000000 I0.366061 J-6.238193 F400.000000
G03 X66.792969 Y39.105469 Z-1.000000 I6.123304 J-13.466253
G03 X65.618109 Y39.834499 Z-1.000000 I-7.525731 J-10.816815
G03 X64.335938 Y40.302734 Z-1.000000 I-2.161875 J-3.930276
G03 X57.291860 Y40.821261 Z-1.000000 I-5.603567 J-28.017858
G03 X50.726562 Y38.447266 Z-1.000000 I0.602261 J-11.930743
G03 X50.281383 Y38.098239 Z-1.000000 I7.924941 J-10.566552
G02 X49.824219 Y37.730469 Z-1.000000 I-20.933046 J25.553271
G02 X48.479100 Y38.542332 Z-1.000000 I21.742328 J37.543592
G03 X47.943359 Y38.755859 Z-1.000000 I-0.848401 J-1.349792
G03 X42.938481 Y38.770675 Z-1.000000 I-2.540059 J-12.700289
G03 X37.080078 Y36.767578 Z-1.000000 I4.283194 J-22.095443
G03 X36.096764 Y37.871244 Z-1.000000 I-8.757078 J-6.812265
G03 X34.953125 Y38.755859 Z-1.000000 I-4.304074 J-4.382788
G03 X32.409323 Y39.573126 Z-1.000000 I-3.020602 J-5.034326
G03 X29.693359 Y39.683594 Z-1.000000 I-2.715964 J-33.332017
G03 X26.941129 Y39.523696 Z-1.000000 I-0.000000 J-23.766272
G03 X24.435547 Y39.066406 Z-1.000000 I2.289526 J-19.637678
G03 X23.971680 Y38.756836 Z-1.000000 I0.200795 J-0.803196
G02 X23.507812 Y38.447266 Z-1.000000 I-0.664663 J0.493627
G02 X23.191979 Y38.464201 Z-1.000000 I-0.130401 J0.521631
G03 X22.888672 Y38.447266 Z-1.000000 I-0.132058 J-0.359428
G03 X22.242211 Y37.871391 Z-1.000000 I0.741695 J-1.483393
G02 X21.652344 Y37.208984 Z-1.000000 I-2.508482 J1.639940
G03 X18.382373 Y33.076302 Z-1.000000 I8.220154 J-9.864188
G03 X17.322266 Y27.929688 Z-1.000000 I9.160292 J-4.569338
G01 X31.960938 Y28.070312 Z-1.000000
G03 X32.791482 Y26.812630 Z-1.000000 I2.538990 J0.773613
G03 X34.642578 Y26.384766 Z-1.000000 I1.344489 J1.598561
G03 X36.446490 Y27.164129 Z-1.000000 I-1.469883 J5.879532
G03 X37.582031 Y28.125000 Z-1.000000 I-3.061523 J4.769476
G01 X47.138672 Y28.218750 Z-1.000000
G02 X47.329372 Y27.637711 Z-1.000000 I-30.474284 J-10.323634
G03 X47.634766 Y27.001953 Z-1.000000 I2.405325 J0.764198
G03 X49.142110 Y26.478779 Z-1.000000 I1.098690 J0.732462
G03 X50.417969 Y27.001953 Z-1.000000 I-2.866766 J8.808454
G03 X51.294602 Y27.493734 Z-1.000000 I-4.724383 J9.448749
G03 X52.396484 Y28.269531 Z-1.000000 I-6.544264 J10.465381
G01 X81.349609 Y28.548828 Z-1.000000
G02 X80.347860 Y29.734641 Z-1.000000 I0.000000 J1.016034
G03 X80.111328 Y31.951172 Z-1.000000 I-4.058315 J0.687812
G02 X78.752386 Y35.532993 Z-1.000000 I99.452969 J39.781146
G03 X76.708984 Y38.755859 Z-1.000000 I-8.216721 J-2.950442
G03 X76.113011 Y39.092500 Z-1.000000 I-0.903302 J-0.903302
G02 X75.472656 Y39.375000 Z-1.000000 I0.490437 J1.978704
G02 X74.320244 Y40.209998 Z-1.000000 I10.118038 J15.177014
G03 X72.998047 Y40.921875 Z-1.000000 I-2.708280 J-3.446374
G03 X72.293358 Y41.076922 Z-1.000000 I-1.086689 J-3.260076
G03 X71.507812 Y41.097656 Z-1.000000 I-0.514437 J-4.599124
G01 X71.507812 Y41.097656 Z-1.000000
G00 Z4.000000

(End cutting path id: path648)


(Start cutting path id: path648)
(Change tool to Default tool)

G00 Z4.000000
G00 X71.507812 Y41.097656

G01 Z-1.000000 F100.0(Penetrate)
G03 X69.287251 Y40.547911 Z-1.000000 I0.366061 J-6.238193 F400.000000
G03 X66.792969 Y39.105469 Z-1.000000 I6.123304 J-13.466253
G03 X65.618109 Y39.834499 Z-1.000000 I-7.525731 J-10.816815
G03 X64.335938 Y40.302734 Z-1.000000 I-2.161875 J-3.930276
G03 X57.291860 Y40.821261 Z-1.000000 I-5.603567 J-28.017858
G03 X50.726562 Y38.447266 Z-1.000000 I0.602261 J-11.930743
G03 X50.281383 Y38.098239 Z-1.000000 I7.924941 J-10.566552
G02 X49.824219 Y37.730469 Z-1.000000 I-20.933046 J25.553271
G02 X48.479100 Y38.542332 Z-1.000000 I21.742328 J37.543592
G03 X47.943359 Y38.755859 Z-1.000000 I-0.848401 J-1.349792
G03 X42.938481 Y38.770675 Z-1.000000 I-2.540059 J-12.700289
G03 X37.080078 Y36.767578 Z-1.000000 I4.283194 J-22.095443
G03 X36.096764 Y37.871244 Z-1.000000 I-8.757078 J-6.812265
G03 X34.953125 Y38.755859 Z-1.000000 I-4.304074 J-4.382788
G03 X32.409323 Y39.573126 Z-1.000000 I-3.020602 J-5.034326
G03 X29.693359 Y39.683594 Z-1.000000 I-2.715964 J-33.332017
G03 X26.941129 Y39.523696 Z-1.000000 I-0.000000 J-23.766272
G03 X24.435547 Y39.066406 Z-1.000000 I2.289526 J-19.637678
G03 X23.971680 Y38.756836 Z-1.000000 I0.200795 J-0.803196
G02 X23.507812 Y38.447266 Z-1.000000 I-0.664663 J0.493627
G02 X23.191979 Y38.464201 Z-1.000000 I-0.130401 J0.521631
G03 X22.888672 Y38.447266 Z-1.000000 I-0.132058 J-0.359428
G03 X22.242211 Y37.871391 Z-1.000000 I0.741695 J-1.483393
G02 X21.652344 Y37.208984 Z-1.000000 I-2.508482 J1.639940
G03 X18.382373 Y33.076302 Z-1.000000 I8.220154 J-9.864188
G03 X17.322266 Y27.929688 Z-1.000000 I9.160292 J-4.569338
G01 X31.960938 Y28.070312 Z-1.000000
G03 X32.791482 Y26.812630 Z-1.000000 I2.538990 J0.773613
G03 X34.642578 Y26.384766 Z-1.000000 I1.344489 J1.598561
G03 X36.446490 Y27.164129 Z-1.000000 I-1.469883 J5.879532
G03 X37.582031 Y28.125000 Z-1.000000 I-3.061523 J4.769476
G01 X47.138672 Y28.218750 Z-1.000000
G02 X47.329372 Y27.637711 Z-1.000000 I-30.474284 J-10.323634
G03 X47.634766 Y27.001953 Z-1.000000 I2.405325 J0.764198
G03 X49.142110 Y26.478779 Z-1.000000 I1.098690 J0.732462
G03 X50.417969 Y27.001953 Z-1.000000 I-2.866766 J8.808454
G03 X51.294602 Y27.493734 Z-1.000000 I-4.724383 J9.448749
G03 X52.396484 Y28.269531 Z-1.000000 I-6.544264 J10.465381
G01 X81.349609 Y28.548828 Z-1.000000
G02 X80.347860 Y29.734641 Z-1.000000 I0.000000 J1.016034
G03 X80.111328 Y31.951172 Z-1.000000 I-4.058315 J0.687812
G02 X78.752386 Y35.532993 Z-1.000000 I99.452969 J39.781146
G03 X76.708984 Y38.755859 Z-1.000000 I-8.216721 J-2.950442
G03 X76.113011 Y39.092500 Z-1.000000 I-0.903302 J-0.903302
G02 X75.472656 Y39.375000 Z-1.000000 I0.490437 J1.978704
G02 X74.320244 Y40.209998 Z-1.000000 I10.118038 J15.177014
G03 X72.998047 Y40.921875 Z-1.000000 I-2.708280 J-3.446374
G03 X72.293358 Y41.076922 Z-1.000000 I-1.086689 J-3.260076
G03 X71.507812 Y41.097656 Z-1.000000 I-0.514437 J-4.599124
G01 X71.507812 Y41.097656 Z-1.000000
G00 Z4.000000

(End cutting path id: path648)


(Footer)
M5
G00 X0.0000 Y0.0000
M2
(Using default footer. To add your own footer create file "footer" in the output dir.)
(end)
%