(Generated from picasso_dog_plotter.svg)
(Global path merge, centered, width=56mm, belly start)
G21
G90
G03 X-27.464 Y-16.550
G03 X-29.934 Y-17.610
G03 X-39.798 Y-9.154
G03 X-56.000 Y1.410
G03 X-55.650 Y2.818
G03 X-49.664 Y3.180
G03 X-34.860 Y1.060
G03 X-34.860 Y1.060
G03 X-32.402 Y13.034
G03 X-30.282 Y15.154
G03 X-28.174 Y14.442
G03 X-25.706 Y6.698
G03 X-25.356 Y-10.564
G03 X-34.860 Y1.060
G03 X-32.054 Y-9.154
G03 X-29.934 Y-11.262
G03 X-26.766 Y-12.322
G03 X-19.370 Y16.912
G03 X-16.202 Y4.228
G03 X3.168 Y3.878
G03 X25.368 Y1.410
G03 X41.208 Y3.180
G03 X42.618 Y4.938
G03 X44.026 Y15.502
G03 X46.146 Y17.610
G03 X48.254 Y-10.214
G03 X53.542 Y-13.022
G03 X55.650 Y-15.142
G03 X56.000 Y-17.250
G03 X53.542 Y-17.250
G03 X43.678 Y-12.672
G03 X27.826 Y-8.444
G03 X10.214 Y-6.336
G03 X-4.926 Y-6.336
G03 X-25.006 Y-10.914
G03 X-26.416 Y-12.672
