(Generated by svg_to_ngc.py)
(source=portrait_detailed_from_photo_continuous.svg, path_id=path50)
(width_mm=56.000, start=belly)
G21
G90
G03 X0.386 Y-27.438
G03 X0.527 Y-28.281
G03 X-1.581 Y-29.265
G03 X-2.705 Y-29.054
G03 X-2.565 Y-29.265
G03 X-2.916 Y-29.616
G03 X-4.602 Y-29.265
G03 X-5.586 Y-28.632
G03 X-5.375 Y-28.492
G03 X-5.797 Y-28.492
G03 X-6.429 Y-27.930
G03 X-6.851 Y-28.000
G03 X-8.467 Y-27.016
G03 X-11.137 Y-23.854
G03 X-11.839 Y-20.271
G03 X-11.769 Y-18.163
G03 X-10.434 Y-15.985
G03 X-9.872 Y-16.688
G03 X-10.083 Y-17.250
G03 X-9.661 Y-17.320
G03 X-9.731 Y-13.385
G03 X-9.029 Y-13.315
G03 X-8.748 Y-13.877
G03 X-8.256 Y-14.018
G03 X-9.521 Y-12.472
G03 X-9.310 Y-11.137
G03 X-9.029 Y-10.856
G03 X-9.240 Y-10.645
G03 X-8.818 Y-10.575
G03 X-9.310 Y-10.504
G03 X-9.099 Y-9.661
G03 X-9.380 Y-11.418
G03 X-9.872 Y-11.137
G03 X-10.083 Y-10.575
G03 X-9.802 Y-8.818
G03 X-9.169 Y-8.186
G03 X-9.661 Y-7.834
G03 X-9.450 Y-7.343
G03 X-9.731 Y-7.132
G03 X-9.240 Y-6.991
G03 X-9.731 Y-7.061
G03 X-9.942 Y-7.624
G03 X-10.223 Y-7.272
G03 X-10.294 Y-4.110
G03 X-10.715 Y-1.862
G03 X-11.137 Y-1.511
G03 X-10.926 Y-2.705
G03 X-11.137 Y-3.056
G03 X-11.629 Y-2.073
G03 X-13.947 Y-0.246
G03 X-12.683 Y-0.035
G03 X-10.856 Y1.300
G03 X-6.921 Y3.197
G03 X-5.586 Y3.619
G03 X-3.408 Y3.759
G03 X-2.073 Y3.478
G03 X-1.792 Y3.197
G03 X-1.089 Y3.267
G03 X-0.527 Y2.846
G03 X-0.597 Y2.354
G03 X-0.176 Y1.440
G03 X-0.176 Y-0.105
G03 X0.386 Y-0.808
G03 X0.597 Y-0.668
G03 X0.457 Y-0.105
G03 X0.878 Y-0.105
G03 X0.738 Y0.597
G03 X0.949 Y1.581
G03 X1.159 Y1.581
G03 X1.511 Y2.916
G03 X1.862 Y3.127
G03 X1.862 Y3.759
G03 X2.424 Y4.602
G03 X2.705 Y5.656
G03 X4.110 Y7.413
G03 X5.375 Y8.326
G03 X5.445 Y8.888
G03 X5.867 Y9.310
G03 X6.359 Y9.450
G03 X6.359 Y9.661
G03 X8.396 Y9.521
G03 X10.645 Y8.748
G03 X9.240 Y9.731
G03 X9.310 Y10.434
G03 X8.959 Y10.083
G03 X7.202 Y10.153
G03 X7.413 Y11.137
G03 X7.975 Y11.418
G03 X7.834 Y12.261
G03 X7.061 Y10.434
G03 X6.289 Y9.942
G03 X5.726 Y9.942
G03 X4.532 Y8.326
G03 X2.705 Y6.499
G03 X1.651 Y4.883
G03 X1.721 Y4.391
G03 X1.230 Y3.619
G03 X0.597 Y0.949
G03 X0.386 Y1.019
G03 X0.035 Y2.916
G03 X-0.386 Y3.689
G03 X-2.354 Y4.321
G03 X-5.094 Y4.391
G03 X-8.256 Y3.478
G03 X-12.893 Y0.738
G03 X-13.245 Y0.949
G03 X-13.315 Y1.511
G03 X-13.034 Y1.862
G03 X-13.245 Y1.932
G03 X-13.596 Y1.089
G03 X-13.455 Y0.457
G03 X-14.158 Y0.176
G03 X-15.072 Y0.949
G03 X-15.704 Y1.089
G03 X-14.228 Y2.213
G03 X-14.369 Y2.424
G03 X-15.072 Y2.354
G03 X-14.931 Y3.056
G03 X-15.212 Y4.883
G03 X-15.634 Y3.970
G03 X-16.196 Y3.548
G03 X-15.915 Y3.408
G03 X-15.423 Y3.689
G03 X-15.212 Y2.565
G03 X-15.423 Y2.565
G03 X-15.493 Y3.267
G03 X-15.493 Y2.635
G03 X-16.547 Y2.354
G03 X-17.601 Y3.548
G03 X-18.374 Y3.900
G03 X-17.882 Y4.040
G03 X-18.023 Y4.321
G03 X-18.655 Y4.602
G03 X-19.287 Y4.462
G03 X-20.271 Y5.516
G03 X-20.552 Y6.570
G03 X-20.060 Y7.132
G03 X-20.130 Y6.148
G03 X-19.639 Y5.586
G03 X-18.023 Y5.586
G03 X-14.650 Y8.888
G03 X-13.596 Y10.645
G03 X-13.877 Y10.715
G03 X-14.931 Y9.380
G03 X-16.336 Y8.326
G03 X-18.514 Y7.483
G03 X-19.498 Y6.780
G03 X-19.920 Y6.921
G03 X-19.568 Y7.413
G03 X-16.828 Y8.467
G03 X-16.407 Y9.169
G03 X-16.055 Y9.099
G03 X-15.072 Y9.942
G03 X-15.212 Y10.294
G03 X-15.001 Y10.645
G03 X-16.758 Y8.888
G03 X-17.882 Y9.099
G03 X-18.725 Y9.731
G03 X-21.114 Y9.942
G03 X-20.974 Y8.748
G03 X-21.184 Y8.537
G03 X-21.325 Y8.888
G03 X-21.255 Y7.483
G03 X-22.028 Y8.678
G03 X-23.082 Y9.450
G03 X-23.082 Y9.731
G03 X-23.784 Y9.731
G03 X-24.136 Y10.364
G03 X-23.784 Y10.575
G03 X-21.817 Y10.294
G03 X-18.725 Y10.434
G03 X-17.320 Y10.856
G03 X-15.353 Y12.050
G03 X-15.844 Y11.839
G03 X-15.704 Y12.331
G03 X-18.444 Y11.066
G03 X-19.006 Y11.207
G03 X-19.358 Y10.996
G03 X-19.639 Y11.207
G03 X-19.849 Y10.996
G03 X-21.184 Y10.926
G03 X-23.433 Y11.418
G03 X-23.644 Y11.066
G03 X-23.995 Y11.066
G03 X-23.925 Y12.402
G03 X-22.941 Y11.769
G03 X-21.676 Y11.558
G03 X-21.395 Y11.839
G03 X-20.622 Y11.699
G03 X-20.341 Y11.910
G03 X-19.217 Y11.699
G03 X-18.444 Y12.050
G03 X-18.093 Y12.542
G03 X-18.374 Y12.331
G03 X-22.028 Y12.331
G03 X-21.957 Y12.542
G03 X-22.801 Y12.612
G03 X-23.925 Y13.737
G03 X-23.573 Y13.104
G03 X-24.768 Y13.666
G03 X-25.119 Y14.228
G03 X-25.189 Y15.985
G03 X-26.173 Y19.358
G03 X-26.384 Y21.184
G03 X-27.297 Y22.379
G03 X-25.962 Y21.887
G03 X-25.541 Y21.465
G03 X-25.260 Y21.747
G03 X-22.590 Y21.114
G03 X-21.325 Y21.255
G03 X-19.077 Y20.974
G03 X-20.060 Y21.255
G03 X-19.568 Y21.395
G03 X-19.568 Y21.747
G03 X-20.622 Y21.606
G03 X-21.325 Y21.887
G03 X-21.536 Y21.536
G03 X-21.887 Y21.957
G03 X-22.238 Y21.957
G03 X-22.238 Y21.747
G03 X-21.747 Y21.395
G03 X-21.887 Y21.114
G03 X-22.801 Y21.184
G03 X-23.503 Y21.465
G03 X-23.082 Y21.957
G03 X-23.784 Y22.028
G03 X-23.854 Y22.238
G03 X-24.065 Y21.957
G03 X-24.908 Y22.309
G03 X-25.330 Y22.168
G03 X-25.400 Y22.660
G03 X-26.033 Y22.519
G03 X-27.438 Y23.152
G03 X-27.227 Y25.049
G03 X-26.735 Y25.611
G03 X-27.087 Y25.892
G03 X-26.806 Y26.173
G03 X-27.087 Y26.243
G03 X-27.087 Y27.368
G03 X-26.665 Y28.351
G03 X-26.665 Y29.335
G03 X-23.854 Y29.757
G03 X-21.887 Y28.843
G03 X-19.498 Y28.281
G03 X-16.196 Y28.492
G03 X-14.790 Y29.335
G03 X-13.245 Y29.616
G03 X-4.462 Y29.616
G03 X-3.970 Y29.124
G03 X-4.391 Y28.984
G03 X-4.391 Y28.632
G03 X-4.883 Y28.141
G03 X-4.883 Y27.016
G03 X-5.656 Y25.611
G03 X-4.602 Y23.925
G03 X-3.970 Y23.433
G03 X-3.689 Y23.784
G03 X-2.635 Y23.292
G03 X-1.230 Y23.152
G03 X-0.176 Y23.995
G03 X0.597 Y23.925
G03 X0.457 Y24.276
G03 X0.668 Y24.417
G03 X1.159 Y24.276
G03 X1.300 Y23.854
G03 X2.775 Y22.449
G03 X3.619 Y22.168
G03 X4.673 Y22.519
G03 X5.024 Y23.995
G03 X4.813 Y25.260
G03 X5.164 Y25.611
G03 X4.954 Y26.033
G03 X5.164 Y26.103
G03 X5.516 Y25.681
G03 X5.375 Y26.033
G03 X5.656 Y26.033
G03 X4.673 Y28.422
G03 X4.673 Y29.546
G03 X8.045 Y29.686
G03 X8.678 Y29.405
G03 X8.888 Y29.686
G03 X10.153 Y29.476
G03 X11.629 Y29.686
G03 X11.839 Y29.476
G03 X11.769 Y28.913
G03 X11.207 Y28.984
G03 X11.348 Y28.632
G03 X11.137 Y28.000
G03 X11.629 Y28.351
G03 X11.558 Y27.508
G03 X11.348 Y27.789
G03 X11.348 Y27.438
G03 X10.996 Y27.157
G03 X11.277 Y26.665
G03 X10.785 Y24.136
G03 X10.996 Y24.276
G03 X10.926 Y23.644
G03 X10.645 Y23.854
G03 X10.575 Y23.363
G03 X10.856 Y23.433
G03 X10.645 Y22.590
G03 X10.926 Y22.098
G03 X10.715 Y21.747
G03 X11.066 Y21.957
G03 X11.910 Y29.476
G03 X12.120 Y29.616
G03 X13.877 Y29.476
G03 X14.088 Y29.194
G03 X14.439 Y29.616
G03 X27.438 Y29.546
G03 X27.719 Y29.124
G03 X27.508 Y27.578
G03 X27.649 Y23.784
G03 X27.438 Y23.433
G03 X27.649 Y22.730
G03 X27.508 Y15.985
G03 X27.719 Y15.072
G03 X26.806 Y15.142
G03 X27.578 Y13.666
G03 X27.578 Y12.472
G03 X27.087 Y12.893
G03 X26.946 Y13.877
G03 X26.524 Y14.299
G03 X25.892 Y15.915
G03 X25.822 Y15.563
G03 X25.119 Y15.774
G03 X24.346 Y15.634
G03 X23.714 Y16.407
G03 X23.995 Y15.423
G03 X23.644 Y15.634
G03 X24.206 Y15.072
G03 X25.400 Y15.072
G03 X26.173 Y14.018
G03 X25.892 Y13.947
G03 X26.384 Y13.455
G03 X26.946 Y11.839
G03 X27.930 Y11.629
G03 X28.000 Y30.038
G03 X-28.000 Y29.967
G03 X-27.578 Y27.438
G03 X-27.859 Y22.590
G03 X-26.806 Y21.114
G03 X-25.681 Y16.336
G03 X-25.471 Y14.018
G03 X-24.698 Y12.542
G03 X-24.487 Y9.802
G03 X-22.168 Y8.045
G03 X-21.044 Y6.359
G03 X-20.201 Y4.462
G03 X-18.093 Y3.197
G03 X-15.353 Y0.035
G03 X-12.402 Y-2.284
G03 X-11.418 Y-3.408
G03 X-10.856 Y-4.602
G03 X-10.504 Y-7.975
G03 X-10.645 Y-9.099
G03 X-10.575 Y-8.537
G03 X-10.364 Y-8.537
G03 X-10.575 Y-9.802
G03 X-12.683 Y-11.769
G03 X-14.018 Y-15.282
G03 X-13.737 Y-17.109
G03 X-13.455 Y-17.390
G03 X-12.472 Y-17.250
G03 X-12.542 Y-20.412
G03 X-12.402 Y-20.130
G03 X-12.120 Y-23.503
G03 X-10.926 Y-25.752
G03 X-7.905 Y-28.211
G03 X-7.694 Y-28.632
G03 X-5.164 Y-29.616
G03 X-5.164 Y-29.827
G03 X-5.375 Y-29.757
G03 X-5.094 Y-29.897
G03 X-4.883 Y-29.757
G03 X-4.251 Y-30.038
G03 X7.764 Y-11.699
G03 X7.624 Y-11.699
G03 X7.483 Y-11.488
G03 X7.483 Y-11.277
G03 X7.553 Y-11.207
G03 X7.764 Y-11.207
G03 X7.834 Y-11.418
G03 X7.975 Y-11.488
G03 X8.607 Y-11.418
G03 X8.678 Y-11.488
G03 X9.029 Y-11.488
G03 X9.169 Y-11.629
G03 X9.099 Y-11.769
G03 X8.396 Y-11.699
G03 X8.326 Y-11.769
G03 X7.905 Y-11.769
G03 X7.834 Y-11.699
G03 X8.396 Y-6.710
G03 X8.115 Y-6.499
G03 X7.483 Y-6.429
G03 X7.413 Y-6.359
G03 X7.132 Y-6.359
G03 X6.710 Y-6.570
G03 X6.710 Y-6.499
G03 X6.851 Y-6.429
G03 X6.780 Y-6.289
G03 X5.867 Y-6.148
G03 X6.499 Y-6.218
G03 X6.570 Y-6.078
G03 X6.499 Y-6.008
G03 X6.218 Y-6.008
G03 X6.078 Y-5.867
G03 X6.218 Y-5.656
G03 X6.218 Y-5.516
G03 X6.078 Y-5.375
G03 X5.445 Y-5.305
G03 X5.375 Y-5.235
G03 X5.375 Y-5.024
G03 X5.235 Y-4.954
G03 X5.937 Y-4.954
G03 X6.008 Y-4.883
G03 X6.078 Y-5.024
G03 X6.429 Y-5.164
G03 X6.640 Y-5.445
G03 X7.343 Y-5.516
G03 X7.624 Y-5.726
G03 X8.748 Y-6.218
G03 X9.099 Y-6.218
G03 X9.380 Y-6.078
G03 X9.591 Y-6.078
G03 X9.591 Y-6.289
G03 X9.450 Y-6.359
G03 X9.380 Y-6.570
G03 X9.029 Y-6.570
G03 X8.818 Y-6.710
G03 X8.467 Y-6.710
G03 X8.326 Y-5.586
G03 X8.467 Y-5.375
G03 X8.678 Y-5.375
G03 X8.748 Y-5.516
G03 X8.678 Y-5.586
G03 X8.748 Y-5.586
G03 X9.029 Y-5.235
G03 X10.013 Y-4.602
G03 X11.418 Y-4.321
G03 X11.418 Y-4.181
G03 X10.785 Y-3.829
G03 X10.504 Y-3.829
G03 X10.364 Y-4.040
G03 X10.083 Y-4.040
G03 X10.013 Y-4.181
G03 X9.872 Y-4.181
G03 X9.450 Y-3.970
G03 X9.169 Y-3.970
G03 X8.888 Y-3.759
G03 X8.607 Y-3.829
G03 X8.396 Y-3.759
G03 X8.115 Y-3.970
G03 X7.764 Y-4.602
G03 X7.343 Y-4.602
G03 X7.272 Y-4.391
G03 X7.061 Y-4.251
G03 X7.061 Y-3.829
G03 X7.553 Y-3.267
G03 X7.834 Y-3.197
G03 X8.115 Y-2.916
G03 X8.326 Y-2.846
G03 X8.537 Y-3.056
G03 X8.678 Y-3.056
G03 X8.959 Y-3.267
G03 X8.959 Y-3.197
G03 X8.607 Y-3.056
G03 X8.396 Y-2.846
G03 X7.413 Y-2.916
G03 X6.780 Y-3.408
G03 X6.640 Y-3.689
G03 X6.499 Y-3.689
G03 X6.359 Y-3.829
G03 X6.499 Y-4.251
G03 X7.202 Y-4.954
G03 X7.413 Y-4.954
G03 X7.694 Y-5.094
G03 X8.115 Y-5.094
G03 X7.694 Y-5.094
G03 X7.624 Y-4.954
G03 X8.045 Y-4.813
G03 X8.959 Y-4.813
G03 X9.029 Y-4.883
G03 X8.959 Y-5.235
G03 X8.326 Y-5.305
G03 X8.256 Y-5.235
G03 X8.326 Y-5.516
G03 X8.256 Y-5.586
G03 X7.413 Y-4.954
G03 X7.553 Y-5.024
G03 X7.624 Y-4.883
G03 X7.061 Y-4.532
G03 X6.991 Y-4.673
G03 X7.343 Y-4.954
G03 X7.272 Y-2.494
G03 X7.132 Y-2.424
G03 X7.132 Y-2.073
G03 X6.991 Y-1.862
G03 X6.991 Y-1.440
G03 X7.132 Y-1.300
G03 X7.132 Y-0.668
G03 X7.202 Y-0.668
G03 X7.694 Y-0.105
G03 X7.834 Y-0.035
G03 X7.553 Y-0.386
G03 X7.624 Y-0.527
G03 X7.905 Y-0.316
G03 X8.186 Y-0.246
G03 X8.537 Y0.316
G03 X8.959 Y0.316
G03 X9.029 Y0.457
G03 X9.521 Y0.597
G03 X9.872 Y0.808
G03 X9.872 Y0.949
G03 X10.153 Y1.159
G03 X10.294 Y1.440
G03 X10.364 Y2.003
G03 X10.434 Y2.073
G03 X10.434 Y3.056
G03 X10.504 Y3.127
G03 X10.504 Y3.408
G03 X10.715 Y3.548
G03 X10.785 Y3.478
G03 X10.785 Y3.127
G03 X10.715 Y3.056
G03 X10.715 Y2.143
G03 X10.645 Y2.073
G03 X10.645 Y1.792
G03 X10.715 Y1.721
G03 X10.645 Y1.019
G03 X10.434 Y0.878
G03 X10.364 Y0.668
G03 X9.942 Y0.105
G03 X9.380 Y-0.105
G03 X9.310 Y-0.246
G03 X9.029 Y-0.386
G03 X8.748 Y-0.386
G03 X8.678 Y-0.246
G03 X8.256 Y-0.246
G03 X8.186 Y-0.316
G03 X8.115 Y-0.738
G03 X8.256 Y-0.808
G03 X8.326 Y-1.019
G03 X8.186 Y-1.089
G03 X8.045 Y-0.808
G03 X7.834 Y-0.878
G03 X7.764 Y-1.019
G03 X7.834 Y-1.300
G03 X7.413 Y-1.651
G03 X7.343 Y-1.862
G03 X7.132 Y-1.932
G03 X7.272 Y-2.424
G03 X6.851 Y-0.597
G03 X6.921 Y-0.597
G03 X6.710 Y-0.457
G03 X6.429 Y-0.457
G03 X6.359 Y-0.386
G03 X6.429 Y-0.246
G03 X6.780 Y-0.246
G03 X6.710 Y-0.035
G03 X5.867 Y0.035
G03 X5.797 Y-0.035
G03 X5.516 Y-0.035
G03 X5.305 Y0.035
G03 X5.164 Y-0.246
G03 X4.883 Y-0.176
G03 X5.445 Y-0.527
G03 X6.710 Y-0.457
G03 X6.780 Y-0.597
G03 X6.289 Y1.370
G03 X6.218 Y1.440
G03 X6.499 Y1.440
G03 X6.570 Y1.370
G03 X7.272 Y1.440
G03 X7.343 Y1.581
G03 X7.272 Y1.651
G03 X6.921 Y1.651
G03 X6.640 Y1.862
G03 X6.359 Y1.862
G03 X6.148 Y2.003
G03 X6.008 Y2.003
G03 X5.867 Y2.143
G03 X5.726 Y2.143
G03 X5.516 Y2.003
G03 X5.375 Y2.003
G03 X5.164 Y2.143
G03 X4.883 Y2.143
G03 X4.743 Y2.354
G03 X4.391 Y2.424
G03 X4.181 Y2.705
G03 X4.181 Y2.846
G03 X4.040 Y3.056
G03 X4.040 Y3.829
G03 X4.883 Y4.602
G03 X5.305 Y4.602
G03 X5.656 Y4.040
G03 X6.499 Y4.040
G03 X7.553 Y3.478
G03 X8.045 Y3.478
G03 X8.115 Y3.548
G03 X8.115 Y3.689
G03 X7.834 Y3.900
G03 X7.764 Y4.110
G03 X7.975 Y4.110
G03 X8.396 Y3.759
G03 X8.748 Y3.689
G03 X9.380 Y3.267
G03 X9.872 Y2.635
G03 X10.013 Y2.705
G03 X10.013 Y2.354
G03 X10.153 Y2.213
G03 X10.153 Y2.073
G03 X9.802 Y1.721
G03 X9.521 Y1.721
G03 X8.888 Y1.511
G03 X8.607 Y1.511
G03 X8.537 Y1.440
G03 X7.483 Y1.440
G03 X7.343 Y1.511
G03 X6.851 Y1.370
G03 X6.359 Y1.440
G03 X7.553 Y2.073
G03 X7.061 Y2.073
G03 X6.851 Y2.284
G03 X6.640 Y2.284
G03 X6.570 Y2.354
G03 X6.429 Y2.213
G03 X6.289 Y2.213
G03 X5.937 Y2.494
G03 X6.008 Y3.127
G03 X5.797 Y2.775
G03 X5.656 Y2.775
G03 X5.516 Y2.565
G03 X5.375 Y2.565
G03 X5.235 Y2.705
G03 X5.235 Y2.986
G03 X5.305 Y3.056
G03 X5.235 Y3.197
G03 X5.375 Y3.267
G03 X5.586 Y3.619
G03 X6.008 Y3.478
G03 X6.499 Y3.478
G03 X6.851 Y3.127
G03 X7.272 Y3.127
G03 X7.483 Y2.986
G03 X7.905 Y2.986
G03 X8.045 Y3.056
G03 X8.256 Y2.916
G03 X8.678 Y2.986
G03 X8.818 Y2.846
G03 X8.818 Y2.424
G03 X8.607 Y2.003
G03 X8.256 Y1.932
G03 X8.186 Y2.003
G03 X8.186 Y2.705
G03 X8.186 Y2.143
G03 X7.975 Y1.932
G03 X7.694 Y1.932
G03 X7.624 Y2.003
G03 X8.748 Y2.073
G03 X8.888 Y2.003
G03 X9.099 Y2.143
G03 X9.240 Y2.424
G03 X9.240 Y2.635
G03 X9.169 Y2.705
G03 X8.959 Y2.705
G03 X8.888 Y2.635
G03 X8.748 Y2.143
G03 X4.743 Y2.846
G03 X4.813 Y2.775
G03 X5.164 Y2.775
G03 X5.235 Y2.846
G03 X5.235 Y3.267
G03 X5.516 Y3.548
G03 X5.445 Y3.689
G03 X4.813 Y3.759
G03 X4.532 Y3.478
G03 X4.462 Y3.127
G03 X4.673 Y2.846
G03 X-1.581 Y3.267
G03 X-1.440 Y3.197
G03 X-1.300 Y3.267
G03 X-1.230 Y3.408
G03 X-1.300 Y3.478
G03 X-1.651 Y3.478
G03 X-1.792 Y3.548
G03 X-1.862 Y3.408
G03 X-1.651 Y3.267
G03 X-2.424 Y3.548
G03 X-2.354 Y3.478
G03 X-2.213 Y3.548
G03 X-2.073 Y3.478
G03 X-2.003 Y3.619
G03 X-2.143 Y3.689
G03 X-2.213 Y3.829
G03 X-2.705 Y3.829
G03 X-2.775 Y3.689
G03 X-2.635 Y3.548
G03 X-2.494 Y3.548
G03 X-0.176 Y-1.721
G03 X-0.176 Y-1.511
G03 X-0.316 Y-1.159
G03 X-0.246 Y-1.019
G03 X0.176 Y-1.089
G03 X0.105 Y-1.511
G03 X-0.035 Y-1.721
G03 X-0.105 Y-1.721
G03 X0.246 Y-3.338
G03 X0.105 Y-3.197
G03 X0.035 Y-2.494
G03 X0.176 Y-2.494
G03 X0.668 Y-2.073
G03 X0.808 Y-1.581
G03 X1.019 Y-1.581
G03 X1.089 Y-1.651
G03 X1.019 Y-2.354
G03 X1.230 Y-2.565
G03 X1.230 Y-2.705
G03 X0.949 Y-3.056
G03 X0.527 Y-3.197
G03 X0.457 Y-3.338
G03 X0.316 Y-3.338
G03 X-1.511 Y-4.251
G03 X-1.440 Y-4.110
G03 X-1.440 Y-3.759
G03 X-1.721 Y-3.548
G03 X-1.862 Y-2.986
G03 X-2.003 Y-3.056
G03 X-2.143 Y-3.267
G03 X-2.565 Y-3.338
G03 X-2.494 Y-3.689
G03 X-2.354 Y-3.689
G03 X-2.073 Y-3.900
G03 X-1.792 Y-3.900
G03 X-1.721 Y-3.970
G03 X-1.721 Y-4.181
G03 X-1.581 Y-4.251
G03 X-3.408 Y-4.813
G03 X-3.127 Y-4.673
G03 X-3.127 Y-4.321
G03 X-3.267 Y-4.110
G03 X-3.689 Y-4.181
G03 X-3.970 Y-4.321
G03 X-3.900 Y-4.532
G03 X-3.689 Y-4.743
G03 X-3.478 Y-4.813
G03 X-3.478 Y-2.213
G03 X-3.267 Y-2.073
G03 X-3.267 Y-1.511
G03 X-2.916 Y-1.300
G03 X-2.916 Y-1.159
G03 X-3.267 Y-1.230
G03 X-3.338 Y-1.511
G03 X-3.478 Y-1.651
G03 X-3.689 Y-1.651
G03 X-3.759 Y-1.721
G03 X-3.759 Y-1.862
G03 X-3.548 Y-2.213
G03 X-14.369 Y-0.105
G03 X-14.299 Y-0.176
G03 X-14.158 Y-0.105
G03 X-14.228 Y0.176
G03 X-14.580 Y0.386
G03 X-14.580 Y0.457
G03 X-15.072 Y0.808
G03 X-15.142 Y0.949
G03 X-15.282 Y0.949
G03 X-15.353 Y0.808
G03 X-14.439 Y-0.035
G03 X-17.039 Y3.478
G03 X-16.898 Y3.478
G03 X-16.898 Y3.759
G03 X-17.039 Y4.181
G03 X-17.531 Y4.673
G03 X-17.742 Y5.024
G03 X-17.882 Y5.024
G03 X-18.023 Y4.813
G03 X-17.671 Y4.532
G03 X-17.531 Y4.181
G03 X-17.390 Y4.110
G03 X-17.109 Y3.478
G03 X-16.898 Y4.954
G03 X-17.109 Y5.094
G03 X-17.460 Y5.164
G03 X-17.531 Y5.305
G03 X-17.390 Y5.445
G03 X-17.250 Y5.867
G03 X-16.898 Y6.078
G03 X-16.407 Y6.640
G03 X-16.125 Y6.780
G03 X-15.844 Y7.061
G03 X-15.915 Y6.851
G03 X-15.844 Y6.780
G03 X-15.634 Y6.851
G03 X-15.563 Y6.640
G03 X-15.774 Y6.640
G03 X-16.125 Y6.008
G03 X-16.336 Y6.008
G03 X-16.758 Y5.797
G03 X-16.758 Y5.445
G03 X-16.688 Y5.305
G03 X-16.898 Y5.164
G03 X-16.828 Y4.954
G03 X-15.001 Y4.813
G03 X-15.142 Y5.094
G03 X-15.142 Y5.375
G03 X-14.790 Y5.797
G03 X-14.650 Y6.289
G03 X-14.650 Y6.570
G03 X-14.509 Y6.780
G03 X-14.509 Y7.061
G03 X-14.299 Y7.553
G03 X-14.299 Y7.834
G03 X-14.158 Y8.045
G03 X-14.088 Y8.467
G03 X-13.877 Y8.748
G03 X-13.737 Y8.818
G03 X-13.666 Y9.029
G03 X-13.526 Y9.099
G03 X-13.385 Y9.450
G03 X-13.174 Y9.450
G03 X-13.174 Y9.310
G03 X-13.385 Y9.029
G03 X-13.455 Y8.678
G03 X-13.737 Y8.115
G03 X-13.877 Y8.045
G03 X-13.947 Y7.483
G03 X-14.088 Y7.343
G03 X-14.158 Y6.851
G03 X-14.299 Y6.640
G03 X-14.299 Y6.429
G03 X-14.439 Y6.289
G03 X-14.509 Y5.867
G03 X-14.650 Y5.797
G03 X-14.650 Y5.516
G03 X-14.790 Y5.305
G03 X-14.931 Y4.813
G03 X-19.217 Y6.148
G03 X-19.147 Y6.078
G03 X-18.514 Y6.078
G03 X-18.233 Y6.359
G03 X-18.023 Y6.359
G03 X-17.882 Y6.710
G03 X-17.390 Y6.921
G03 X-17.320 Y7.272
G03 X-17.390 Y7.343
G03 X-17.742 Y7.343
G03 X-18.444 Y6.991
G03 X-18.725 Y6.710
G03 X-19.287 Y6.429
G03 X-19.217 Y6.218
G03 X-20.412 Y7.132
G03 X-20.271 Y7.061
G03 X-19.990 Y7.202
G03 X-19.849 Y7.413
G03 X-19.920 Y7.483
G03 X-20.271 Y7.413
G03 X-20.412 Y7.202
G03 X-20.482 Y7.975
G03 X-20.412 Y7.905
G03 X-19.990 Y7.905
G03 X-19.639 Y8.045
G03 X-19.358 Y8.045
G03 X-19.006 Y8.326
G03 X-18.444 Y8.326
G03 X-18.304 Y8.396
G03 X-18.163 Y8.678
G03 X-18.233 Y8.748
G03 X-18.444 Y8.748
G03 X-18.444 Y8.818
G03 X-18.866 Y9.169
G03 X-19.147 Y9.169
G03 X-19.428 Y9.380
G03 X-20.341 Y9.450
G03 X-20.412 Y9.380
G03 X-20.482 Y8.045
G03 X-18.655 Y8.045
G03 X-18.163 Y8.256
G03 X-17.671 Y8.256
G03 X-17.601 Y8.186
G03 X-17.671 Y8.045
G03 X-18.093 Y8.045
G03 X-18.374 Y7.905
G03 X-18.585 Y7.905
G03 X-18.655 Y7.975
G03 X-22.660 Y9.521
G03 X-22.379 Y9.521
G03 X-22.168 Y9.661
G03 X-22.168 Y9.731
G03 X-22.590 Y9.872
G03 X-22.801 Y9.731
G03 X-22.730 Y9.521
G03 X-24.065 Y10.645
G03 X-23.995 Y10.575
G03 X-23.573 Y10.575
G03 X-23.503 Y10.715
G03 X-23.714 Y10.856
G03 X-23.995 Y10.856
G03 X-24.065 Y10.715
G03 X-23.433 Y12.683
G03 X-23.363 Y12.612
G03 X-23.082 Y12.612
G03 X-23.011 Y12.683
G03 X-23.292 Y13.034
G03 X-23.503 Y12.964
G03 X-23.433 Y12.753
G03 X-22.028 Y11.980
G03 X-21.817 Y12.331
G03 X-21.465 Y12.331
G03 X-21.395 Y12.261
G03 X-21.676 Y11.910
G03 X-21.957 Y11.839
G03 X-22.028 Y11.910
G03 X-19.709 Y14.088
G03 X-19.920 Y14.228
G03 X-20.482 Y14.299
G03 X-20.482 Y14.369
G03 X-20.060 Y14.369
G03 X-19.920 Y14.580
G03 X-19.709 Y14.650
G03 X-19.639 Y14.790
G03 X-19.428 Y14.790
G03 X-19.358 Y14.931
G03 X-19.147 Y14.931
G03 X-18.936 Y14.720
G03 X-18.725 Y14.720
G03 X-18.585 Y14.931
G03 X-18.023 Y15.072
G03 X-17.952 Y15.212
G03 X-17.531 Y15.212
G03 X-17.531 Y15.001
G03 X-17.952 Y14.720
G03 X-17.882 Y14.580
G03 X-17.601 Y14.580
G03 X-17.531 Y14.158
G03 X-17.531 Y14.228
G03 X-17.671 Y14.299
G03 X-17.882 Y14.088
G03 X-17.882 Y14.158
G03 X-17.601 Y14.369
G03 X-17.671 Y14.580
G03 X-18.233 Y14.580
G03 X-18.795 Y14.299
G03 X-19.217 Y14.228
G03 X-19.358 Y14.088
G03 X-19.639 Y14.088
G03 X-20.833 Y20.130
G03 X-20.341 Y20.130
G03 X-20.130 Y20.271
G03 X-19.006 Y20.271
G03 X-18.866 Y20.412
G03 X-18.725 Y20.412
G03 X-18.444 Y20.201
G03 X-18.374 Y20.341
G03 X-18.163 Y20.341
G03 X-18.163 Y20.482
G03 X-17.952 Y20.622
G03 X-17.460 Y20.693
G03 X-17.390 Y20.763
G03 X-17.179 Y20.763
G03 X-17.109 Y20.622
G03 X-16.688 Y20.693
G03 X-16.617 Y20.833
G03 X-16.407 Y20.903
G03 X-16.407 Y21.114
G03 X-16.196 Y21.255
G03 X-16.196 Y21.325
G03 X-16.336 Y21.255
G03 X-16.407 Y21.114
G03 X-16.617 Y21.114
G03 X-16.969 Y20.833
G03 X-17.460 Y20.763
G03 X-17.742 Y20.622
G03 X-18.866 Y20.622
G03 X-19.077 Y20.693
G03 X-19.498 Y20.482
G03 X-19.990 Y20.552
G03 X-20.060 Y20.622
G03 X-20.271 Y20.552
G03 X-20.833 Y20.552
G03 X-20.903 Y20.622
G03 X-21.184 Y20.622
G03 X-21.325 Y20.763
G03 X-21.536 Y20.693
G03 X-21.606 Y20.763
G03 X-21.887 Y20.763
G03 X-22.098 Y20.903
G03 X-22.379 Y20.763
G03 X-22.660 Y20.833
G03 X-22.730 Y20.763
G03 X-23.011 Y20.763
G03 X-23.082 Y20.833
G03 X-23.644 Y20.833
G03 X-23.714 Y20.903
G03 X-23.292 Y20.763
G03 X-23.082 Y20.833
G03 X-22.941 Y20.693
G03 X-22.871 Y20.271
G03 X-22.660 Y20.412
G03 X-22.590 Y20.622
G03 X-22.379 Y20.622
G03 X-22.098 Y20.271
G03 X-21.957 Y20.341
G03 X-21.536 Y20.341
G03 X-21.255 Y20.482
G03 X-21.044 Y20.201
G03 X-20.903 Y20.130
G03 X-21.255 Y21.255
G03 X-21.184 Y21.184
G03 X-20.693 Y21.184
G03 X-20.622 Y21.325
G03 X-20.833 Y21.465
G03 X-20.974 Y21.395
G03 X-21.044 Y21.465
G03 X-21.606 Y21.465
G03 X-21.676 Y21.395
G03 X-21.606 Y21.255
G03 X-21.325 Y21.255
G03 X-22.590 Y21.395
G03 X-22.801 Y21.536
G03 X-22.871 Y21.887
G03 X-22.449 Y21.817
G03 X-22.449 Y21.676
G03 X-22.590 Y21.465
G03 X-23.644 Y20.060
G03 X-23.714 Y20.412
G03 X-23.644 Y20.552
G03 X-23.854 Y20.552
G03 X-23.995 Y20.201
G03 X-23.714 Y20.060
G03 X-24.557 Y24.979
G03 X-24.487 Y25.189
G03 X-24.557 Y25.260
G03 X-24.627 Y25.892
G03 X-25.049 Y26.314
G03 X-25.189 Y26.595
G03 X-25.541 Y26.665
G03 X-25.471 Y26.876
G03 X-25.260 Y26.876
G03 X-25.260 Y26.665
G03 X-25.189 Y26.595
G03 X-24.908 Y26.595
G03 X-24.768 Y26.314
G03 X-24.487 Y26.243
G03 X-24.417 Y26.033
G03 X-24.557 Y25.962
G03 X-24.557 Y25.822
G03 X-24.417 Y25.752
G03 X-24.346 Y25.611
G03 X-24.346 Y25.260
G03 X-24.276 Y25.189
G03 X-24.276 Y25.049
G03 X-24.487 Y25.049
G03 X-23.433 Y26.103
G03 X-23.363 Y26.033
G03 X-23.152 Y26.033
G03 X-23.082 Y26.173
G03 X-23.222 Y26.243
G03 X-23.222 Y26.384
G03 X-23.363 Y26.524
G03 X-23.573 Y26.524
G03 X-23.644 Y26.384
G03 X-23.573 Y26.243
G03 X-23.433 Y26.173
G03 X-24.908 Y27.578
G03 X-24.908 Y27.789
G03 X-25.049 Y28.000
G03 X-25.049 Y28.141
G03 X-25.330 Y28.211
G03 X-25.400 Y28.000
G03 X-24.979 Y27.649
G03 X-24.979 Y27.578
G03 X-27.508 Y27.930
G03 X-27.368 Y27.859
G03 X-27.227 Y28.070
G03 X-27.157 Y28.913
G03 X-27.087 Y28.984
G03 X-27.087 Y29.757
G03 X-27.227 Y29.967
G03 X-27.368 Y29.897
G03 X-27.368 Y29.757
G03 X-27.578 Y29.405
G03 X-27.578 Y28.070
G03 X-27.508 Y28.000
G03 X-19.990 Y28.773
G03 X-20.903 Y28.843
G03 X-21.606 Y29.124
G03 X-21.817 Y29.124
G03 X-22.379 Y29.476
G03 X-22.660 Y29.546
G03 X-22.871 Y29.827
G03 X-22.801 Y29.897
G03 X-22.168 Y29.897
G03 X-22.098 Y29.967
G03 X-21.184 Y29.827
G03 X-21.044 Y29.967
G03 X-20.903 Y29.897
G03 X-20.482 Y29.897
G03 X-20.341 Y29.967
G03 X-20.271 Y29.897
G03 X-19.779 Y29.827
G03 X-19.498 Y29.967
G03 X-19.287 Y29.967
G03 X-19.217 Y29.827
G03 X-18.655 Y29.967
G03 X-18.304 Y29.827
G03 X-17.460 Y29.827
G03 X-17.390 Y29.757
G03 X-16.055 Y29.827
G03 X-15.704 Y29.967
G03 X-15.282 Y29.897
G03 X-15.212 Y29.967
G03 X-14.931 Y29.967
G03 X-14.861 Y29.897
G03 X-15.142 Y29.546
G03 X-15.353 Y29.405
G03 X-15.704 Y29.335
G03 X-15.844 Y29.194
G03 X-17.039 Y28.773
G03 X-17.812 Y28.703
G03 X-17.882 Y28.632
G03 X-19.428 Y28.632
G03 X-19.498 Y28.703
G03 X-19.709 Y28.703
G03 X-19.849 Y28.632
G03 X-19.920 Y28.703
G03 X-18.514 Y24.627
G03 X-18.795 Y25.049
G03 X-19.006 Y25.049
G03 X-19.006 Y25.330
G03 X-18.936 Y25.330
G03 X-18.866 Y25.189
G03 X-18.725 Y25.189
G03 X-18.585 Y24.838
G03 X-18.444 Y24.768
G03 X-18.444 Y24.627
G03 X-19.006 Y23.363
G03 X-19.006 Y23.503
G03 X-19.147 Y23.573
G03 X-19.217 Y23.714
G03 X-19.639 Y23.784
G03 X-19.849 Y23.925
G03 X-19.920 Y24.206
G03 X-19.849 Y24.276
G03 X-19.568 Y24.206
G03 X-19.428 Y24.065
G03 X-19.498 Y24.206
G03 X-19.709 Y24.346
G03 X-20.130 Y24.417
G03 X-20.482 Y24.698
G03 X-20.693 Y24.627
G03 X-20.974 Y24.768
G03 X-21.536 Y25.330
G03 X-21.887 Y25.260
G03 X-22.168 Y25.471
G03 X-22.168 Y25.541
G03 X-22.449 Y25.681
G03 X-22.660 Y25.962
G03 X-23.082 Y26.243
G03 X-23.082 Y26.454
G03 X-23.011 Y26.524
G03 X-23.222 Y26.454
G03 X-23.292 Y26.665
G03 X-23.503 Y26.665
G03 X-23.573 Y26.735
G03 X-23.714 Y26.665
G03 X-24.065 Y27.157
G03 X-24.065 Y27.297
G03 X-24.206 Y27.508
G03 X-24.206 Y27.719
G03 X-24.346 Y27.859
G03 X-24.557 Y27.789
G03 X-24.487 Y27.649
G03 X-24.698 Y27.508
G03 X-24.698 Y27.368
G03 X-24.346 Y26.946
G03 X-24.206 Y26.876
G03 X-24.065 Y26.595
G03 X-23.925 Y26.524
G03 X-23.784 Y26.103
G03 X-23.573 Y25.892
G03 X-23.363 Y25.892
G03 X-23.292 Y25.752
G03 X-23.152 Y25.681
G03 X-22.801 Y25.681
G03 X-22.730 Y25.611
G03 X-22.801 Y25.049
G03 X-22.660 Y25.119
G03 X-22.590 Y25.260
G03 X-22.449 Y25.260
G03 X-21.747 Y24.838
G03 X-21.606 Y24.627
G03 X-21.465 Y24.557
G03 X-21.184 Y24.557
G03 X-20.763 Y24.276
G03 X-20.412 Y24.417
G03 X-20.201 Y23.995
G03 X-19.779 Y23.784
G03 X-19.709 Y23.644
G03 X-19.428 Y23.644
G03 X-19.358 Y23.503
G03 X-19.147 Y23.433
G03 X-19.077 Y23.292
G03 X-1.721 Y23.714
G03 X-1.932 Y23.714
G03 X-2.424 Y23.925
G03 X-3.197 Y23.854
G03 X-3.548 Y24.206
G03 X-3.900 Y24.346
G03 X-4.391 Y24.346
G03 X-4.883 Y24.908
G03 X-5.094 Y25.471
G03 X-5.094 Y26.033
G03 X-4.673 Y26.524
G03 X-4.462 Y26.595
G03 X-4.391 Y26.735
G03 X-4.110 Y26.806
G03 X-4.602 Y27.368
G03 X-4.602 Y27.859
G03 X-3.970 Y28.562
G03 X-3.970 Y29.265
G03 X-3.900 Y29.335
G03 X-3.970 Y29.476
G03 X-3.759 Y29.686
G03 X-3.478 Y29.686
G03 X-3.338 Y29.546
G03 X-3.338 Y29.335
G03 X-3.548 Y29.265
G03 X-3.197 Y28.632
G03 X-2.565 Y28.351
G03 X-2.003 Y28.351
G03 X-1.651 Y28.141
G03 X-0.597 Y28.000
G03 X-0.105 Y27.508
G03 X-0.035 Y26.946
G03 X0.176 Y26.524
G03 X0.176 Y26.103
G03 X0.316 Y25.752
G03 X0.457 Y24.417
G03 X0.316 Y24.276
G03 X-0.035 Y24.346
G03 X-0.176 Y24.698
G03 X-0.246 Y25.471
G03 X-0.457 Y25.892
G03 X-0.668 Y25.471
G03 X-0.668 Y24.698
G03 X-0.808 Y24.487
G03 X-0.808 Y24.206
G03 X-1.089 Y23.995
G03 X-1.089 Y23.854
G03 X-1.370 Y23.573
G03 X-1.651 Y23.644
G03 X-0.949 Y28.070
G03 X-0.878 Y28.000
G03 X-0.457 Y28.000
G03 X-0.386 Y28.070
G03 X-0.457 Y28.211
G03 X-0.878 Y28.211
G03 X-0.949 Y28.141
G03 X0.035 Y28.281
G03 X0.246 Y28.211
G03 X0.527 Y28.773
G03 X0.668 Y29.265
G03 X0.527 Y29.616
G03 X0.176 Y29.546
G03 X0.035 Y29.405
G03 X-0.386 Y29.546
G03 X-0.668 Y29.335
G03 X-0.808 Y29.335
G03 X-0.808 Y29.405
G03 X-1.089 Y29.616
G03 X-1.581 Y29.616
G03 X-1.651 Y29.546
G03 X-1.792 Y29.616
G03 X-2.003 Y29.546
G03 X-2.635 Y29.616
G03 X-2.916 Y29.405
G03 X-2.916 Y29.124
G03 X-2.775 Y28.984
G03 X-2.494 Y28.984
G03 X-2.424 Y28.913
G03 X-1.862 Y28.984
G03 X-1.721 Y28.773
G03 X-0.316 Y28.632
G03 X0.035 Y28.351
G03 X3.127 Y22.660
G03 X2.143 Y23.644
G03 X1.511 Y24.487
G03 X1.370 Y24.838
G03 X1.370 Y25.189
G03 X1.511 Y25.260
G03 X1.230 Y25.330
G03 X1.159 Y25.962
G03 X0.949 Y26.243
G03 X0.878 Y26.665
G03 X0.668 Y27.016
G03 X0.668 Y27.930
G03 X0.808 Y28.141
G03 X0.808 Y28.492
G03 X1.019 Y28.843
G03 X1.721 Y29.335
G03 X1.932 Y29.335
G03 X2.073 Y29.194
G03 X2.073 Y29.054
G03 X2.003 Y29.335
G03 X2.073 Y29.405
G03 X2.354 Y29.405
G03 X2.494 Y29.546
G03 X3.338 Y29.546
G03 X3.478 Y29.335
G03 X3.689 Y29.335
G03 X3.829 Y29.194
G03 X3.829 Y29.054
G03 X4.040 Y28.703
G03 X4.040 Y28.492
G03 X4.181 Y28.281
G03 X4.181 Y28.000
G03 X4.532 Y27.297
G03 X4.391 Y27.087
G03 X4.532 Y27.157
G03 X5.024 Y26.454
G03 X4.954 Y26.173
G03 X4.743 Y26.314
G03 X4.602 Y26.103
G03 X4.462 Y26.173
G03 X4.462 Y26.384
G03 X4.321 Y26.384
G03 X4.462 Y26.314
G03 X4.391 Y25.471
G03 X4.251 Y25.189
G03 X4.321 Y25.119
G03 X4.321 Y24.768
G03 X4.462 Y24.627
G03 X4.462 Y24.206
G03 X4.532 Y24.136
G03 X4.462 Y23.152
G03 X4.321 Y22.941
G03 X3.900 Y22.660
G03 X3.619 Y22.660
G03 X3.548 Y22.730
G03 X3.267 Y22.590
G03 X3.197 Y22.660
G03 X9.380 Y20.693
G03 X9.380 Y21.114
G03 X9.310 Y21.184
G03 X9.380 Y21.747
G03 X9.240 Y21.957
G03 X9.310 Y22.309
G03 X9.380 Y22.309
G03 X9.450 Y22.168
G03 X9.450 Y21.887
G03 X9.521 Y21.817
G03 X9.450 Y21.606
G03 X9.521 Y20.693
G03 X9.450 Y20.693
G03 X8.115 Y17.250
G03 X8.186 Y17.320
G03 X8.186 Y17.531
G03 X8.326 Y17.671
G03 X8.326 Y17.882
G03 X8.537 Y18.093
G03 X8.678 Y18.093
G03 X8.818 Y17.882
G03 X8.888 Y17.390
G03 X8.678 Y17.179
G03 X8.186 Y17.109
G03 X8.115 Y17.179
G03 X8.256 Y15.353
G03 X8.326 Y15.423
G03 X8.326 Y15.634
G03 X8.467 Y15.774
G03 X8.818 Y15.634
G03 X8.537 Y15.282
G03 X8.326 Y15.212
G03 X8.256 Y15.282
G03 X7.272 Y15.142
G03 X7.413 Y15.072
G03 X7.483 Y15.212
G03 X7.834 Y15.423
G03 X7.834 Y15.634
G03 X7.624 Y16.055
G03 X7.343 Y15.844
G03 X7.343 Y15.704
G03 X7.202 Y15.563
G03 X7.202 Y15.212
G03 X6.991 Y14.509
G03 X7.132 Y14.580
G03 X7.553 Y14.580
G03 X7.624 Y15.212
G03 X7.694 Y15.282
G03 X7.834 Y15.212
G03 X7.975 Y14.861
G03 X8.186 Y14.861
G03 X8.326 Y15.212
G03 X8.607 Y15.282
G03 X9.029 Y15.634
G03 X9.099 Y15.985
G03 X9.240 Y16.055
G03 X9.169 Y16.336
G03 X9.310 Y16.547
G03 X9.310 Y16.828
G03 X9.521 Y17.109
G03 X9.802 Y17.250
G03 X9.872 Y17.390
G03 X10.013 Y17.320
G03 X9.942 Y17.179
G03 X10.013 Y17.250
G03 X10.013 Y17.390
G03 X9.872 Y17.531
G03 X9.872 Y17.742
G03 X9.591 Y18.093
G03 X9.591 Y18.304
G03 X9.521 Y18.304
G03 X9.450 Y18.163
G03 X9.450 Y17.882
G03 X9.310 Y17.812
G03 X9.099 Y18.023
G03 X9.099 Y18.374
G03 X8.959 Y18.374
G03 X9.029 Y17.882
G03 X8.888 Y17.812
G03 X8.748 Y18.023
G03 X8.748 Y18.233
G03 X8.607 Y18.163
G03 X8.467 Y18.374
G03 X8.186 Y18.304
G03 X8.115 Y18.023
G03 X7.975 Y17.882
G03 X7.975 Y17.601
G03 X7.834 Y17.390
G03 X7.764 Y17.039
G03 X7.905 Y16.969
G03 X7.905 Y16.898
G03 X8.045 Y16.898
G03 X8.115 Y17.039
G03 X8.256 Y17.109
G03 X8.396 Y17.039
G03 X8.396 Y16.898
G03 X8.748 Y16.898
G03 X8.888 Y16.969
G03 X9.099 Y16.688
G03 X8.959 Y16.407
G03 X8.537 Y15.915
G03 X8.396 Y15.915
G03 X8.115 Y16.336
G03 X7.905 Y16.477
G03 X7.202 Y16.336
G03 X7.132 Y16.266
G03 X7.061 Y15.985
G03 X6.851 Y15.704
G03 X6.851 Y15.142
G03 X6.991 Y15.001
G03 X6.991 Y14.790
G03 X7.061 Y14.720
G03 X6.921 Y14.509
G03 X6.148 Y12.612
G03 X6.008 Y12.753
G03 X6.008 Y13.245
G03 X6.289 Y13.807
G03 X6.429 Y13.947
G03 X6.640 Y13.947
G03 X6.710 Y13.877
G03 X6.710 Y13.666
G03 X6.640 Y13.596
G03 X6.640 Y13.245
G03 X6.499 Y12.964
G03 X6.499 Y12.753
G03 X6.289 Y12.472
G03 X6.148 Y12.542
G03 X5.164 Y11.418
G03 X5.094 Y11.980
G03 X5.375 Y12.261
G03 X5.516 Y12.261
G03 X5.586 Y12.191
G03 X5.586 Y11.488
G03 X5.445 Y11.277
G03 X5.235 Y11.348
G03 X4.602 Y10.856
G03 X4.743 Y10.926
G03 X4.883 Y11.137
G03 X5.094 Y10.996
G03 X5.656 Y10.926
G03 X6.148 Y11.488
G03 X6.078 Y11.910
G03 X6.218 Y12.050
G03 X6.570 Y12.050
G03 X6.851 Y12.331
G03 X6.921 Y12.683
G03 X7.132 Y13.104
G03 X7.132 Y13.385
G03 X7.272 Y13.737
G03 X7.272 Y14.088
G03 X7.132 Y14.228
G03 X6.921 Y14.228
G03 X6.851 Y14.088
G03 X6.780 Y14.088
G03 X6.570 Y14.299
G03 X6.640 Y14.580
G03 X6.570 Y14.650
G03 X6.429 Y14.650
G03 X6.078 Y14.228
G03 X5.937 Y13.877
G03 X5.797 Y13.737
G03 X5.586 Y13.034
G03 X5.164 Y12.683
G03 X5.094 Y12.542
G03 X4.743 Y12.402
G03 X4.532 Y12.191
G03 X4.321 Y12.191
G03 X4.251 Y12.120
G03 X3.970 Y12.120
G03 X3.829 Y12.331
G03 X3.689 Y12.261
G03 X3.759 Y11.558
G03 X3.689 Y11.418
G03 X3.829 Y11.207
G03 X4.181 Y10.996
G03 X4.181 Y10.926
G03 X4.462 Y10.926
G03 X4.532 Y10.856
G03 X4.181 Y11.207
G03 X4.251 Y11.137
G03 X4.462 Y11.207
G03 X4.462 Y11.629
G03 X4.321 Y11.769
G03 X4.110 Y11.629
G03 X4.110 Y11.348
G03 X4.181 Y11.277
G03 X2.073 Y12.050
G03 X2.424 Y12.120
G03 X2.494 Y12.331
G03 X2.635 Y12.331
G03 X2.775 Y12.472
G03 X2.775 Y12.612
G03 X2.494 Y12.612
G03 X2.354 Y12.753
G03 X2.003 Y12.683
G03 X2.073 Y12.612
G03 X2.073 Y12.402
G03 X2.003 Y12.331
G03 X2.003 Y12.050
G03 X4.743 Y15.634
G03 X4.040 Y16.266
G03 X3.829 Y16.617
G03 X3.759 Y17.952
G03 X3.829 Y18.023
G03 X3.829 Y18.374
G03 X4.040 Y18.725
G03 X4.040 Y18.936
G03 X4.391 Y19.287
G03 X4.673 Y19.287
G03 X4.883 Y19.428
G03 X5.024 Y19.428
G03 X5.516 Y19.147
G03 X5.937 Y18.655
G03 X6.218 Y18.023
G03 X6.289 Y17.179
G03 X6.148 Y16.898
G03 X6.148 Y16.547
G03 X6.008 Y16.336
G03 X6.008 Y16.196
G03 X5.586 Y15.774
G03 X5.164 Y15.634
G03 X4.813 Y15.634
G03 X4.813 Y16.125
G03 X4.251 Y16.688
G03 X4.181 Y16.828
G03 X4.181 Y17.179
G03 X4.110 Y17.250
G03 X4.181 Y18.163
G03 X4.743 Y18.795
G03 X5.094 Y18.725
G03 X5.516 Y18.304
G03 X5.797 Y17.671
G03 X5.797 Y17.039
G03 X5.586 Y16.477
G03 X5.164 Y16.055
G03 X4.954 Y16.055
G03 X4.883 Y16.125
G03 X8.537 Y13.034
G03 X8.396 Y13.104
G03 X8.326 Y13.245
G03 X8.678 Y13.596
G03 X8.748 Y13.877
G03 X8.959 Y13.877
G03 X8.959 Y13.455
G03 X8.607 Y13.034
G03 X9.591 Y14.580
G03 X9.521 Y14.720
G03 X9.380 Y14.720
G03 X9.310 Y15.282
G03 X9.521 Y15.423
G03 X9.661 Y16.055
G03 X9.942 Y16.477
G03 X9.942 Y16.758
G03 X10.223 Y17.109
G03 X10.434 Y17.812
G03 X10.856 Y18.023
G03 X10.856 Y18.163
G03 X10.645 Y18.233
G03 X10.785 Y18.374
G03 X10.504 Y18.936
G03 X10.575 Y19.217
G03 X10.434 Y19.428
G03 X10.504 Y20.903
G03 X10.575 Y21.044
G03 X10.926 Y21.114
G03 X10.856 Y20.341
G03 X10.575 Y20.130
G03 X10.504 Y19.849
G03 X10.856 Y19.639
G03 X10.856 Y19.428
G03 X11.137 Y19.147
G03 X11.277 Y19.147
G03 X11.418 Y19.990
G03 X11.769 Y20.201
G03 X11.558 Y20.412
G03 X11.558 Y20.693
G03 X11.980 Y21.536
G03 X11.839 Y22.098
G03 X12.050 Y21.817
G03 X11.980 Y21.536
G03 X12.191 Y21.184
G03 X11.839 Y20.693
G03 X11.769 Y19.990
G03 X11.558 Y19.639
G03 X11.629 Y19.498
G03 X11.418 Y19.287
G03 X11.418 Y18.936
G03 X11.137 Y18.374
G03 X10.996 Y17.601
G03 X10.575 Y17.179
G03 X10.434 Y16.547
G03 X10.785 Y16.547
G03 X10.294 Y16.266
G03 X9.942 Y15.563
G03 X9.872 Y14.931
G03 X10.013 Y14.861
G03 X11.066 Y15.774
G03 X11.207 Y15.774
G03 X11.418 Y16.055
G03 X11.418 Y16.266
G03 X11.699 Y16.055
G03 X11.699 Y15.493
G03 X11.488 Y15.423
G03 X11.488 Y15.142
G03 X11.348 Y15.282
G03 X11.137 Y15.282
G03 X10.996 Y15.072
G03 X10.715 Y15.001
G03 X10.715 Y15.142
G03 X10.575 Y15.212
G03 X10.013 Y14.861
G03 X9.802 Y14.861
G03 X9.661 Y14.650
G03 X12.893 Y15.844
G03 X12.753 Y15.915
G03 X12.753 Y16.055
G03 X12.964 Y16.477
G03 X12.964 Y16.617
G03 X13.104 Y16.688
G03 X13.245 Y16.898
G03 X13.174 Y17.039
G03 X13.245 Y17.601
G03 X13.455 Y17.671
G03 X13.455 Y17.390
G03 X13.245 Y16.898
G03 X13.315 Y16.407
G03 X13.174 Y16.196
G03 X13.174 Y15.915
G03 X12.964 Y15.844
G03 X15.001 Y16.477
G03 X15.001 Y17.039
G03 X15.282 Y17.179
G03 X15.493 Y17.531
G03 X15.704 Y17.531
G03 X15.774 Y17.742
G03 X15.493 Y17.952
G03 X15.493 Y18.444
G03 X15.423 Y18.655
G03 X15.212 Y18.795
G03 X15.142 Y19.006
G03 X15.072 Y19.006
G03 X14.861 Y18.725
G03 X14.931 Y18.585
G03 X14.931 Y18.163
G03 X14.861 Y18.023
G03 X14.720 Y17.952
G03 X14.650 Y18.304
G03 X14.439 Y18.374
G03 X14.439 Y18.655
G03 X14.299 Y18.725
G03 X14.299 Y18.795
G03 X14.580 Y19.006
G03 X14.580 Y19.287
G03 X14.439 Y19.358
G03 X14.299 Y19.147
G03 X14.158 Y19.147
G03 X14.018 Y19.709
G03 X14.158 Y19.709
G03 X14.369 Y19.849
G03 X14.299 Y19.779
G03 X14.369 Y19.568
G03 X14.509 Y19.428
G03 X14.650 Y19.428
G03 X14.720 Y19.217
G03 X14.931 Y19.147
G03 X14.861 Y19.077
G03 X14.931 Y18.936
G03 X15.353 Y19.077
G03 X15.423 Y19.006
G03 X15.634 Y19.006
G03 X15.704 Y18.866
G03 X15.915 Y18.725
G03 X15.774 Y18.655
G03 X15.774 Y18.514
G03 X15.985 Y18.163
G03 X15.985 Y17.812
G03 X15.915 Y17.812
G03 X15.844 Y17.671
G03 X15.985 Y17.531
G03 X16.266 Y17.460
G03 X16.125 Y17.250
G03 X16.125 Y17.109
G03 X15.774 Y16.969
G03 X15.774 Y16.828
G03 X15.985 Y16.758
G03 X15.774 Y16.758
G03 X15.774 Y16.898
G03 X15.563 Y16.969
G03 X15.353 Y16.898
G03 X15.212 Y16.758
G03 X15.212 Y16.617
G03 X15.072 Y16.547
G03 X13.385 Y19.077
G03 X13.455 Y19.709
G03 X13.737 Y19.709
G03 X13.666 Y19.287
G03 X13.385 Y19.147
G03 X11.910 Y17.882
G03 X12.120 Y17.812
G03 X12.191 Y18.023
G03 X12.120 Y18.444
G03 X12.261 Y18.514
G03 X12.261 Y18.725
G03 X12.191 Y18.795
G03 X11.980 Y18.655
G03 X12.050 Y18.374
G03 X11.910 Y18.304
G03 X11.980 Y18.163
G03 X11.839 Y17.952
G03 X11.839 Y17.812
G03 X16.336 Y19.849
G03 X16.407 Y19.779
G03 X16.617 Y19.779
G03 X16.758 Y19.920
G03 X16.758 Y20.271
G03 X16.688 Y20.341
G03 X16.477 Y20.271
G03 X16.336 Y20.060
G03 X16.336 Y19.920
G03 X17.601 Y19.006
G03 X17.460 Y19.147
G03 X17.531 Y19.498
G03 X17.320 Y19.779
G03 X17.179 Y19.779
G03 X16.969 Y19.428
G03 X16.898 Y19.568
G03 X16.758 Y19.568
G03 X16.407 Y19.287
G03 X16.407 Y19.147
G03 X16.125 Y19.358
G03 X15.985 Y19.287
G03 X16.055 Y19.498
G03 X15.774 Y19.779
G03 X15.493 Y19.779
G03 X15.493 Y19.990
G03 X15.634 Y20.130
G03 X16.055 Y20.130
G03 X16.407 Y20.833
G03 X16.125 Y20.974
G03 X15.844 Y20.974
G03 X15.774 Y20.903
G03 X15.915 Y20.693
G03 X15.844 Y20.693
G03 X15.493 Y21.044
G03 X15.353 Y21.044
G03 X15.353 Y21.255
G03 X15.142 Y21.395
G03 X15.072 Y21.536
G03 X15.142 Y22.028
G03 X15.282 Y22.168
G03 X15.282 Y22.449
G03 X15.142 Y22.590
G03 X15.212 Y22.590
G03 X15.353 Y22.379
G03 X15.493 Y22.449
G03 X15.563 Y22.309
G03 X15.985 Y22.238
G03 X16.196 Y22.028
G03 X16.407 Y22.098
G03 X16.477 Y22.028
G03 X16.477 Y21.887
G03 X16.336 Y21.817
G03 X16.477 Y21.536
G03 X16.477 Y21.395
G03 X16.336 Y21.184
G03 X16.407 Y20.833
G03 X16.617 Y20.763
G03 X16.758 Y20.974
G03 X16.617 Y21.184
G03 X16.688 Y21.184
G03 X16.758 Y21.325
G03 X16.898 Y21.255
G03 X16.828 Y21.184
G03 X16.828 Y20.903
G03 X16.898 Y20.763
G03 X17.109 Y20.622
G03 X17.039 Y20.482
G03 X17.179 Y20.201
G03 X17.460 Y19.920
G03 X17.390 Y19.709
G03 X18.023 Y19.147
G03 X18.233 Y19.147
G03 X18.304 Y19.006
G03 X18.093 Y19.006
G03 X18.023 Y19.077
G03 X17.742 Y19.077
G03 X17.671 Y19.006
G03 X19.217 Y19.920
G03 X19.217 Y19.990
G03 X19.077 Y20.060
G03 X19.217 Y20.482
G03 X19.147 Y20.552
G03 X18.795 Y20.552
G03 X18.585 Y20.763
G03 X18.655 Y20.903
G03 X18.866 Y20.903
G03 X19.006 Y20.763
G03 X19.217 Y20.763
G03 X19.287 Y20.552
G03 X19.498 Y20.412
G03 X19.568 Y20.271
G03 X19.779 Y20.271
G03 X19.779 Y20.201
G03 X19.498 Y20.130
G03 X19.428 Y19.920
G03 X19.287 Y19.920
G03 X18.514 Y21.114
G03 X18.725 Y21.114
G03 X18.725 Y21.536
G03 X18.514 Y21.606
G03 X18.444 Y21.395
G03 X18.304 Y21.395
G03 X18.233 Y21.536
G03 X18.023 Y21.536
G03 X18.093 Y21.255
G03 X18.163 Y21.395
G03 X18.304 Y21.395
G03 X18.444 Y21.255
G03 X18.444 Y21.114
G03 X17.390 Y22.309
G03 X17.531 Y22.309
G03 X17.460 Y22.590
G03 X17.250 Y22.590
G03 X17.179 Y22.730
G03 X17.179 Y22.449
G03 X17.320 Y22.379
G03 X17.320 Y22.309
G03 X16.828 Y22.801
G03 X16.898 Y22.871
G03 X16.898 Y23.082
G03 X16.828 Y23.152
G03 X16.828 Y23.363
G03 X16.547 Y23.503
G03 X16.477 Y23.363
G03 X16.547 Y23.292
G03 X16.547 Y23.011
G03 X16.477 Y22.941
G03 X16.617 Y23.011
G03 X16.758 Y22.801
G03 X14.439 Y24.417
G03 X14.580 Y24.346
G03 X14.580 Y24.557
G03 X14.439 Y24.768
G03 X14.439 Y24.908
G03 X14.369 Y24.908
G03 X14.228 Y24.627
G03 X14.088 Y24.557
G03 X14.299 Y24.557
G03 X14.369 Y24.346
G03 X10.926 Y24.768
G03 X10.996 Y24.698
G03 X11.137 Y24.768
G03 X11.207 Y24.979
G03 X11.207 Y25.260
G03 X11.137 Y25.330
G03 X10.996 Y25.260
G03 X10.926 Y24.838
G03 X11.207 Y26.524
G03 X11.348 Y26.454
G03 X11.488 Y26.665
G03 X11.488 Y27.087
G03 X11.418 Y27.157
G03 X11.277 Y27.087
G03 X11.277 Y26.665
G03 X11.207 Y26.595
G03 X13.596 Y28.422
G03 X13.455 Y28.703
G03 X13.455 Y28.984
G03 X13.737 Y29.124
G03 X14.088 Y28.703
G03 X13.947 Y28.492
G03 X13.737 Y28.492
G03 X13.666 Y28.422
G03 X20.833 Y18.866
G03 X20.552 Y19.498
G03 X20.622 Y19.639
G03 X20.903 Y19.428
G03 X21.184 Y19.428
G03 X21.255 Y19.498
G03 X21.184 Y19.709
G03 X21.255 Y19.709
G03 X21.325 Y19.568
G03 X21.606 Y19.639
G03 X21.817 Y19.498
G03 X21.747 Y19.358
G03 X21.325 Y19.217
G03 X20.903 Y18.866
G03 X23.363 Y17.531
G03 X23.363 Y17.671
G03 X23.222 Y17.882
G03 X23.082 Y17.952
G03 X23.011 Y18.444
G03 X22.801 Y18.585
G03 X22.730 Y18.725
G03 X22.730 Y19.147
G03 X22.871 Y19.077
G03 X23.082 Y18.655
G03 X23.082 Y18.514
G03 X23.292 Y18.233
G03 X23.503 Y18.374
G03 X23.644 Y18.374
G03 X23.644 Y18.093
G03 X23.503 Y18.023
G03 X23.433 Y17.531
G03 X21.957 Y15.353
G03 X21.957 Y15.704
G03 X21.606 Y16.125
G03 X21.465 Y16.125
G03 X21.676 Y15.844
G03 X21.747 Y15.493
G03 X21.887 Y15.423
G03 X21.887 Y15.353
G03 X22.590 Y14.018
G03 X22.519 Y14.158
G03 X22.379 Y14.228
G03 X22.238 Y14.931
G03 X22.379 Y14.931
G03 X22.519 Y14.650
G03 X22.519 Y14.369
G03 X22.660 Y14.158
G03 X22.660 Y14.018
G03 X23.995 Y14.158
G03 X23.995 Y14.299
G03 X23.854 Y14.509
G03 X23.854 Y14.790
G03 X23.995 Y14.790
G03 X24.065 Y14.650
G03 X24.065 Y14.158
G03 X25.611 Y10.364
G03 X25.892 Y10.504
G03 X26.033 Y10.504
G03 X26.173 Y10.364
G03 X26.524 Y10.645
G03 X27.016 Y10.926
G03 X27.016 Y11.207
G03 X26.946 Y11.277
G03 X26.735 Y11.277
G03 X26.595 Y11.066
G03 X26.524 Y11.066
G03 X26.454 Y10.785
G03 X26.243 Y10.575
G03 X26.103 Y10.575
G03 X25.892 Y10.926
G03 X25.681 Y10.996
G03 X25.611 Y10.926
G03 X25.681 Y10.715
G03 X25.611 Y10.645
G03 X25.611 Y10.294
G03 X25.260 Y10.153
G03 X25.330 Y10.153
G03 X25.330 Y10.645
G03 X25.189 Y10.715
G03 X25.189 Y10.996
G03 X25.119 Y11.066
G03 X25.119 Y11.839
G03 X24.838 Y12.261
G03 X24.838 Y12.472
G03 X24.557 Y12.823
G03 X24.487 Y12.823
G03 X24.346 Y12.191
G03 X24.557 Y11.910
G03 X24.557 Y11.207
G03 X24.698 Y10.785
G03 X24.838 Y10.715
G03 X24.768 Y10.364
G03 X24.838 Y10.223
G03 X25.119 Y10.223
G03 X25.189 Y10.153
G03 X24.346 Y9.942
G03 X23.854 Y10.785
G03 X23.714 Y11.418
G03 X23.573 Y11.488
G03 X23.433 Y12.050
G03 X23.152 Y12.542
G03 X23.152 Y12.964
G03 X23.011 Y13.174
G03 X22.941 Y13.526
G03 X22.660 Y13.526
G03 X22.660 Y13.315
G03 X22.871 Y13.034
G03 X22.871 Y12.893
G03 X22.730 Y12.823
G03 X22.590 Y13.034
G03 X22.379 Y13.034
G03 X22.519 Y13.034
G03 X22.801 Y12.753
G03 X22.871 Y12.120
G03 X23.011 Y11.980
G03 X23.011 Y11.769
G03 X23.222 Y11.488
G03 X23.222 Y11.277
G03 X23.573 Y10.785
G03 X23.714 Y10.153
G03 X23.784 Y10.083
G03 X23.995 Y10.153
G03 X24.276 Y9.942
G03 X22.028 Y8.256
G03 X21.957 Y8.537
G03 X22.028 Y8.607
G03 X22.309 Y8.467
G03 X22.238 Y8.959
G03 X21.817 Y9.450
G03 X21.817 Y9.731
G03 X21.676 Y10.153
G03 X21.465 Y10.504
G03 X21.465 Y10.785
G03 X21.255 Y11.066
G03 X21.255 Y11.207
G03 X21.044 Y11.558
G03 X20.763 Y12.612
G03 X20.552 Y12.753
G03 X20.552 Y13.104
G03 X20.060 Y13.245
G03 X20.060 Y12.964
G03 X20.271 Y12.612
G03 X20.130 Y12.542
G03 X19.990 Y12.753
G03 X19.849 Y12.683
G03 X19.920 Y12.542
G03 X20.060 Y12.542
G03 X20.201 Y12.402
G03 X20.412 Y11.839
G03 X20.552 Y11.699
G03 X20.693 Y11.207
G03 X20.833 Y10.996
G03 X20.903 Y10.575
G03 X21.044 Y10.434
G03 X21.044 Y10.223
G03 X21.325 Y9.731
G03 X21.465 Y9.099
G03 X21.957 Y8.467
G03 X22.028 Y8.186
G03 X21.325 Y5.937
G03 X21.747 Y6.289
G03 X21.676 Y6.429
G03 X21.395 Y6.499
G03 X21.114 Y6.289
G03 X21.255 Y5.937
G03 X20.412 Y4.462
G03 X20.622 Y4.391
G03 X20.763 Y4.532
G03 X20.693 Y4.673
G03 X20.763 Y4.883
G03 X21.114 Y4.883
G03 X21.255 Y5.094
G03 X21.606 Y5.094
G03 X21.817 Y5.305
G03 X22.168 Y5.375
G03 X22.519 Y5.726
G03 X22.730 Y5.726
G03 X22.871 Y5.445
G03 X23.082 Y5.445
G03 X23.222 Y5.586
G03 X23.222 Y6.008
G03 X23.433 Y6.359
G03 X23.503 Y7.061
G03 X23.644 Y7.272
G03 X23.784 Y7.272
G03 X23.854 Y7.132
G03 X23.644 Y6.780
G03 X23.854 Y6.429
G03 X23.854 Y6.148
G03 X23.925 Y6.078
G03 X24.136 Y6.148
G03 X24.276 Y6.289
G03 X24.276 Y6.710
G03 X24.908 Y7.132
G03 X24.698 Y7.413
G03 X24.838 Y7.834
G03 X24.979 Y7.975
G03 X25.330 Y7.834
G03 X25.400 Y7.975
G03 X25.260 Y8.115
G03 X25.260 Y8.256
G03 X25.541 Y8.186
G03 X25.822 Y8.607
G03 X26.103 Y8.748
G03 X26.033 Y9.029
G03 X25.822 Y9.169
G03 X25.400 Y8.959
G03 X25.049 Y8.678
G03 X24.908 Y8.396
G03 X24.557 Y8.326
G03 X24.417 Y8.045
G03 X23.995 Y7.694
G03 X23.363 Y7.553
G03 X22.660 Y7.132
G03 X22.028 Y7.061
G03 X21.887 Y6.851
G03 X21.817 Y6.921
G03 X21.676 Y6.921
G03 X21.536 Y6.780
G03 X20.903 Y6.851
G03 X20.693 Y6.710
G03 X20.341 Y6.710
G03 X19.920 Y6.359
G03 X19.849 Y6.008
G03 X19.639 Y5.867
G03 X19.428 Y5.867
G03 X19.077 Y5.516
G03 X19.077 Y5.375
G03 X19.217 Y5.235
G03 X19.568 Y5.235
G03 X19.568 Y5.024
G03 X19.709 Y4.883
G03 X19.920 Y4.883
G03 X20.060 Y5.094
G03 X20.552 Y5.094
G03 X20.622 Y5.024
G03 X20.060 Y4.673
G03 X20.130 Y4.462
G03 X20.341 Y4.462
G03 X19.779 Y3.900
G03 X19.709 Y3.970
G03 X19.709 Y4.251
G03 X19.779 Y4.321
G03 X19.779 Y4.743
G03 X19.920 Y4.813
G03 X20.060 Y4.462
G03 X20.060 Y3.970
G03 X19.920 Y3.759
G03 X19.779 Y3.829
G03 X19.358 Y4.321
G03 X19.498 Y4.251
G03 X19.639 Y4.532
G03 X19.639 Y4.954
G03 X19.498 Y5.235
G03 X19.358 Y5.164
G03 X19.358 Y4.391
G03 X18.374 Y4.673
G03 X18.514 Y4.602
G03 X18.585 Y4.673
G03 X18.585 Y4.883
G03 X18.374 Y5.094
G03 X18.163 Y5.094
G03 X18.093 Y4.954
G03 X18.374 Y4.743
G03 X18.514 Y5.024
G03 X18.655 Y4.954
G03 X19.077 Y5.375
G03 X19.077 Y5.516
G03 X18.936 Y5.586
G03 X18.866 Y5.445
G03 X18.866 Y5.586
G03 X19.077 Y5.586
G03 X19.217 Y5.726
G03 X19.147 Y5.867
G03 X18.655 Y5.726
G03 X18.655 Y5.516
G03 X18.444 Y5.094
G03 X18.023 Y4.462
G03 X17.882 Y4.602
G03 X17.812 Y5.024
G03 X17.531 Y4.883
G03 X17.531 Y4.462
G03 X17.460 Y4.391
G03 X17.039 Y4.673
G03 X17.039 Y5.094
G03 X17.250 Y5.305
G03 X17.460 Y5.375
G03 X17.671 Y5.867
G03 X17.882 Y5.726
G03 X17.952 Y5.235
G03 X18.163 Y5.164
G03 X18.023 Y4.954
G03 X18.163 Y4.813
G03 X18.233 Y4.391
G03 X18.093 Y4.321
G03 X18.023 Y4.391
G03 X17.952 Y2.354
G03 X17.952 Y2.916
G03 X18.093 Y2.986
G03 X18.233 Y2.846
G03 X18.163 Y2.705
G03 X18.163 Y2.284
G03 X18.023 Y2.213
G03 X17.952 Y2.284
G03 X17.952 Y-1.019
G03 X18.304 Y-0.457
G03 X18.444 Y-0.527
G03 X18.444 Y-0.597
G03 X18.655 Y-0.457
G03 X18.795 Y-0.527
G03 X18.725 Y-0.668
G03 X18.163 Y-1.159
G03 X18.023 Y-1.089
G03 X18.866 Y-1.370
G03 X18.725 Y-1.159
G03 X19.006 Y-0.808
G03 X19.147 Y-0.808
G03 X19.217 Y-1.019
G03 X19.077 Y-1.089
G03 X19.077 Y-1.440
G03 X18.936 Y-1.511
G03 X18.866 Y-1.440
G03 X15.072 Y0.246
G03 X15.212 Y0.246
G03 X15.353 Y0.457
G03 X15.282 Y1.159
G03 X15.423 Y1.300
G03 X15.563 Y1.300
G03 X15.563 Y1.370
G03 X15.072 Y1.511
G03 X15.212 Y2.775
G03 X15.001 Y3.056
G03 X15.072 Y3.127
G03 X15.282 Y3.127
G03 X15.212 Y4.110
G03 X15.072 Y4.391
G03 X15.072 Y4.813
G03 X14.790 Y5.024
G03 X14.720 Y5.305
G03 X14.580 Y5.375
G03 X14.580 Y5.164
G03 X14.720 Y4.954
G03 X14.720 Y4.743
G03 X14.650 Y4.673
G03 X14.509 Y4.743
G03 X14.509 Y4.954
G03 X14.369 Y5.164
G03 X14.369 Y5.024
G03 X14.509 Y4.813
G03 X14.580 Y4.391
G03 X14.931 Y3.548
G03 X14.931 Y3.127
G03 X15.142 Y2.775
G03 X15.212 Y2.424
G03 X15.072 Y2.143
G03 X15.072 Y1.721
G03 X14.931 Y1.651
G03 X14.720 Y2.073
G03 X14.720 Y2.424
G03 X14.580 Y2.635
G03 X14.580 Y2.916
G03 X14.580 Y2.705
G03 X14.439 Y2.494
G03 X14.439 Y1.792
G03 X14.580 Y1.511
G03 X14.790 Y1.581
G03 X14.931 Y1.440
G03 X14.790 Y0.808
G03 X14.580 Y0.527
G03 X14.720 Y0.597
G03 X14.790 Y0.527
G03 X14.790 Y0.808
G03 X14.931 Y0.878
G03 X15.001 Y0.808
G03 X15.001 Y0.246
G03 X14.158 Y3.056
G03 X14.369 Y3.197
G03 X14.299 Y4.040
G03 X14.228 Y4.040
G03 X14.158 Y3.900
G03 X14.088 Y3.056
G03 X12.402 Y7.202
G03 X12.472 Y7.202
G03 X12.402 Y7.483
G03 X12.261 Y7.483
G03 X12.191 Y7.624
G03 X11.769 Y7.764
G03 X11.629 Y7.905
G03 X11.488 Y7.905
G03 X11.558 Y7.764
G03 X11.769 Y7.624
G03 X11.839 Y7.413
G03 X12.331 Y7.202
G03 X6.921 Y9.661
G03 X6.991 Y9.591
G03 X7.413 Y9.591
G03 X7.483 Y9.661
G03 X7.413 Y9.802
G03 X6.991 Y9.802
G03 X6.921 Y9.731
G03 X-2.916 Y15.915
G03 X-2.916 Y16.407
G03 X-3.127 Y16.758
G03 X-3.127 Y18.444
G03 X-3.829 Y19.498
G03 X-3.900 Y19.849
G03 X-4.040 Y19.920
G03 X-4.110 Y20.622
G03 X-4.462 Y21.395
G03 X-4.743 Y21.325
G03 X-4.813 Y20.201
G03 X-4.321 Y19.287
G03 X-4.321 Y18.374
G03 X-4.181 Y18.163
G03 X-4.251 Y17.882
G03 X-3.408 Y16.828
G03 X-4.110 Y16.969
G03 X-4.391 Y17.250
G03 X-4.532 Y17.250
G03 X-4.673 Y17.531
G03 X-4.602 Y18.233
G03 X-4.743 Y18.304
G03 X-4.743 Y18.655
G03 X-4.602 Y18.725
G03 X-4.602 Y18.936
G03 X-4.813 Y19.428
G03 X-5.024 Y19.568
G03 X-5.024 Y19.920
G03 X-5.164 Y20.060
G03 X-5.094 Y20.693
G03 X-5.164 Y21.395
G03 X-5.024 Y21.536
G03 X-4.743 Y21.465
G03 X-4.673 Y21.676
G03 X-4.462 Y21.606
G03 X-4.181 Y20.903
G03 X-4.040 Y20.974
G03 X-4.040 Y21.255
G03 X-3.759 Y21.255
G03 X-3.478 Y20.903
G03 X-3.548 Y20.271
G03 X-3.338 Y20.060
G03 X-3.408 Y19.779
G03 X-2.986 Y19.077
G03 X-2.635 Y18.725
G03 X-2.635 Y17.952
G03 X-2.494 Y17.460
G03 X-2.635 Y16.828
G03 X-2.494 Y16.477
G03 X-2.565 Y16.196
G03 X-2.775 Y16.336
G03 X-2.916 Y16.266
G03 X-2.846 Y16.125
G03 X-2.916 Y15.985
G03 X19.920 Y13.666
G03 X19.920 Y13.807
G03 X19.779 Y13.947
G03 X19.779 Y14.088
G03 X19.498 Y14.580
G03 X19.498 Y15.142
G03 X19.428 Y15.212
G03 X19.428 Y15.634
G03 X19.358 Y15.704
G03 X19.428 Y15.915
G03 X19.498 Y15.915
G03 X19.498 Y15.774
G03 X19.639 Y15.704
G03 X19.639 Y15.493
G03 X19.920 Y14.931
G03 X19.990 Y14.158
G03 X20.130 Y13.877
G03 X20.130 Y13.737
G03 X19.990 Y13.666
G03 X13.455 Y-2.986
G03 X13.737 Y-2.143
G03 X13.807 Y-1.581
G03 X13.947 Y-1.511
G03 X14.018 Y-1.581
G03 X14.018 Y-1.932
G03 X13.807 Y-2.424
G03 X13.877 Y-2.635
G03 X13.737 Y-2.775
G03 X13.596 Y-3.127
G03 X13.455 Y-3.056
G03 X13.385 Y-3.548
G03 X13.455 Y-3.478
G03 X13.455 Y-3.197
G03 X13.596 Y-3.127
G03 X13.666 Y-3.197
G03 X13.666 Y-3.548
G03 X13.526 Y-3.689
G03 X13.385 Y-3.619
G03 X14.299 Y-3.619
G03 X14.509 Y-3.689
G03 X14.650 Y-3.548
G03 X14.790 Y-3.056
G03 X14.720 Y-2.916
G03 X14.790 Y-2.705
G03 X14.931 Y-2.635
G03 X15.212 Y-2.073
G03 X15.985 Y-1.300
G03 X16.547 Y-0.949
G03 X16.477 Y-0.808
G03 X16.266 Y-0.738
G03 X15.563 Y-1.300
G03 X15.001 Y-1.932
G03 X14.299 Y-3.056
G03 X14.299 Y-3.548
G03 X15.704 Y-4.883
G03 X16.758 Y-3.759
G03 X17.601 Y-3.338
G03 X17.952 Y-2.986
G03 X18.374 Y-2.775
G03 X18.093 Y-2.846
G03 X17.742 Y-3.197
G03 X17.531 Y-3.197
G03 X17.460 Y-3.338
G03 X17.320 Y-3.267
G03 X17.320 Y-3.127
G03 X17.812 Y-2.705
G03 X18.023 Y-2.424
G03 X18.304 Y-2.284
G03 X18.655 Y-1.370
G03 X18.795 Y-1.370
G03 X18.866 Y-1.511
G03 X18.725 Y-1.862
G03 X18.725 Y-2.213
G03 X18.514 Y-2.354
G03 X18.655 Y-2.284
G03 X18.795 Y-2.424
G03 X19.147 Y-2.143
G03 X19.428 Y-2.073
G03 X19.498 Y-2.143
G03 X19.498 Y-2.424
G03 X19.428 Y-2.494
G03 X19.217 Y-2.494
G03 X18.514 Y-3.338
G03 X18.093 Y-3.338
G03 X17.390 Y-3.900
G03 X17.109 Y-4.040
G03 X16.828 Y-4.391
G03 X16.407 Y-4.462
G03 X15.985 Y-4.813
G03 X15.844 Y-5.024
G03 X15.704 Y-4.954
G03 X15.704 Y-5.867
G03 X15.634 Y-5.797
G03 X15.634 Y-5.586
G03 X15.704 Y-5.445
G03 X16.055 Y-5.094
G03 X15.985 Y-4.954
G03 X16.055 Y-4.883
G03 X16.196 Y-4.954
G03 X16.266 Y-4.673
G03 X16.477 Y-4.462
G03 X16.758 Y-4.462
G03 X16.828 Y-4.673
G03 X16.969 Y-4.673
G03 X17.742 Y-4.391
G03 X17.882 Y-4.251
G03 X17.882 Y-4.040
G03 X18.233 Y-3.759
G03 X18.444 Y-3.478
G03 X18.655 Y-3.548
G03 X18.585 Y-3.900
G03 X18.093 Y-4.462
G03 X17.531 Y-4.883
G03 X17.320 Y-4.883
G03 X17.250 Y-5.024
G03 X16.617 Y-5.024
G03 X16.688 Y-5.094
G03 X16.688 Y-5.305
G03 X16.407 Y-5.516
G03 X16.477 Y-5.726
G03 X16.407 Y-5.797
G03 X16.266 Y-5.797
G03 X16.055 Y-5.937
G03 X15.844 Y-5.937
G03 X15.774 Y-5.867
G03 X14.650 Y-6.570
G03 X14.931 Y-6.570
G03 X15.353 Y-6.008
G03 X15.212 Y-5.867
G03 X15.353 Y-5.305
G03 X15.915 Y-4.181
G03 X16.547 Y-3.478
G03 X17.250 Y-3.056
G03 X17.250 Y-2.635
G03 X17.742 Y-2.213
G03 X17.812 Y-2.003
G03 X17.531 Y-1.721
G03 X18.093 Y-1.230
G03 X17.882 Y-1.089
G03 X18.304 Y-0.176
G03 X18.725 Y-0.105
G03 X18.585 Y-0.386
G03 X19.006 Y-0.457
G03 X19.287 Y0.597
G03 X18.655 Y0.597
G03 X19.639 Y2.986
G03 X19.639 Y3.338
G03 X19.147 Y3.689
G03 X18.725 Y3.689
G03 X18.514 Y3.338
G03 X18.795 Y2.494
G03 X18.444 Y2.846
G03 X18.233 Y2.775
G03 X18.374 Y1.651
G03 X18.023 Y0.738
G03 X17.671 Y0.527
G03 X18.163 Y0.176
G03 X18.023 Y-0.246
G03 X17.882 Y-0.035
G03 X16.828 Y-1.370
G03 X14.790 Y-3.338
G03 X15.072 Y-3.408
G03 X14.439 Y-3.759
G03 X13.104 Y-5.375
G03 X13.315 Y-5.516
G03 X13.737 Y-5.164
G03 X13.174 Y-6.078
G03 X13.315 Y-6.218
G03 X14.650 Y-4.251
G03 X16.266 Y-2.775
G03 X16.125 Y-2.635
G03 X17.531 Y-0.878
G03 X17.460 Y-1.511
G03 X16.969 Y-2.143
G03 X16.828 Y-2.705
G03 X16.055 Y-3.408
G03 X15.704 Y-4.251
G03 X14.931 Y-5.164
G03 X14.369 Y-6.289
G03 X14.580 Y-6.570
G03 X13.455 Y-10.223
G03 X14.720 Y-9.029
G03 X15.493 Y-7.975
G03 X15.563 Y-7.553
G03 X15.844 Y-7.202
G03 X15.915 Y-7.202
G03 X15.985 Y-7.343
G03 X15.704 Y-7.834
G03 X15.634 Y-8.256
G03 X15.353 Y-8.748
G03 X13.947 Y-10.013
G03 X13.947 Y-10.153
G03 X13.807 Y-10.294
G03 X13.526 Y-10.364
G03 X13.455 Y-10.294
G03 X-9.310 Y-25.752
G03 X-9.310 Y-25.681
G03 X-9.450 Y-25.611
G03 X-9.310 Y-25.189
G03 X-9.240 Y-25.189
G03 X-9.240 Y-25.400
G03 X-9.169 Y-25.471
G03 X-9.169 Y-25.752
G03 X-9.240 Y-25.752
G03 X-8.326 Y-20.271
G03 X-8.396 Y-20.060
G03 X-8.748 Y-19.779
G03 X-8.959 Y-19.709
G03 X-8.959 Y-19.639
G03 X-8.748 Y-19.498
G03 X-8.818 Y-19.287
G03 X-8.467 Y-19.287
G03 X-8.467 Y-19.428
G03 X-8.256 Y-19.498
G03 X-7.905 Y-19.920
G03 X-7.905 Y-20.130
G03 X-8.115 Y-20.271
G03 X-8.256 Y-20.271
G03 X-9.731 Y-18.304
G03 X-9.731 Y-17.952
G03 X-9.942 Y-18.023
G03 X-10.083 Y-17.882
G03 X-10.223 Y-17.882
G03 X-10.294 Y-17.952
G03 X-10.223 Y-18.163
G03 X-10.013 Y-18.023
G03 X-9.802 Y-18.304
G03 X-12.191 Y-17.531
G03 X-12.120 Y-17.601
G03 X-11.980 Y-17.531
G03 X-11.980 Y-17.250
G03 X-12.050 Y-17.179
G03 X-12.472 Y-17.320
G03 X-12.402 Y-17.460
G03 X-12.191 Y-17.460
G03 X-12.120 Y-16.969
G03 X-11.980 Y-17.039
G03 X-11.910 Y-16.898
G03 X-11.207 Y-16.266
G03 X-10.856 Y-15.634
G03 X-10.856 Y-15.353
G03 X-10.715 Y-15.142
G03 X-10.715 Y-14.650
G03 X-10.645 Y-14.580
G03 X-10.715 Y-14.088
G03 X-10.575 Y-14.018
G03 X-10.575 Y-13.315
G03 X-10.434 Y-13.034
G03 X-10.434 Y-12.893
G03 X-10.575 Y-12.823
G03 X-10.434 Y-12.542
G03 X-10.504 Y-12.472
G03 X-10.504 Y-11.910
G03 X-10.575 Y-11.839
G03 X-10.575 Y-11.277
G03 X-10.645 Y-11.207
G03 X-10.645 Y-10.996
G03 X-10.575 Y-10.926
G03 X-10.575 Y-10.364
G03 X-10.645 Y-10.294
G03 X-10.785 Y-10.294
G03 X-11.066 Y-10.575
G03 X-11.137 Y-10.856
G03 X-11.418 Y-11.207
G03 X-11.348 Y-11.629
G03 X-11.418 Y-11.629
G03 X-11.558 Y-11.418
G03 X-11.769 Y-11.418
G03 X-12.050 Y-11.839
G03 X-12.050 Y-12.261
G03 X-12.120 Y-12.402
G03 X-12.331 Y-12.472
G03 X-12.542 Y-12.893
G03 X-12.472 Y-13.174
G03 X-12.191 Y-13.315
G03 X-12.331 Y-13.807
G03 X-12.472 Y-13.807
G03 X-12.612 Y-14.088
G03 X-12.893 Y-13.877
G03 X-13.034 Y-13.877
G03 X-13.174 Y-14.088
G03 X-13.315 Y-14.580
G03 X-13.315 Y-14.931
G03 X-13.385 Y-15.001
G03 X-13.385 Y-15.282
G03 X-13.315 Y-15.353
G03 X-13.315 Y-16.196
G03 X-13.034 Y-16.617
G03 X-12.753 Y-16.758
G03 X-12.402 Y-16.758
G03 X-12.191 Y-16.898
G03 X-11.839 Y-15.142
G03 X-11.980 Y-15.001
G03 X-12.050 Y-14.720
G03 X-11.839 Y-14.720
G03 X-11.488 Y-14.509
G03 X-11.348 Y-14.509
G03 X-11.277 Y-14.650
G03 X-11.348 Y-15.001
G03 X-11.488 Y-15.142
G03 X-11.769 Y-15.142
G03 X-10.575 Y-14.439
G03 X-10.504 Y-14.509
G03 X-10.364 Y-14.439
G03 X-10.364 Y-14.018
G03 X-10.434 Y-13.947
G03 X-10.575 Y-14.018
G03 X-10.575 Y-14.369
G03 X-10.013 Y-11.769
G03 X-9.942 Y-11.839
G03 X-9.802 Y-11.769
G03 X-9.802 Y-11.348
G03 X-9.872 Y-11.277
G03 X-10.013 Y-11.348
G03 X-10.013 Y-11.699
G03 X-9.240 Y-9.240
G03 X-9.310 Y-9.029
G03 X-9.099 Y-8.959
G03 X-8.818 Y-8.959
G03 X-8.748 Y-9.029
G03 X-8.818 Y-9.169
G03 X-9.169 Y-9.240
G03 X-8.607 Y-7.905
G03 X-8.748 Y-7.624
G03 X-8.748 Y-7.413
G03 X-8.888 Y-7.202
G03 X-8.888 Y-6.780
G03 X-8.748 Y-6.570
G03 X-8.678 Y-6.218
G03 X-8.467 Y-6.008
G03 X-8.467 Y-5.656
G03 X-8.045 Y-5.305
G03 X-8.045 Y-4.954
G03 X-7.975 Y-4.883
G03 X-7.764 Y-4.883
G03 X-7.764 Y-5.235
G03 X-8.115 Y-5.586
G03 X-8.115 Y-5.726
G03 X-8.326 Y-6.008
G03 X-8.326 Y-6.710
G03 X-8.467 Y-6.780
G03 X-8.467 Y-7.132
G03 X-8.537 Y-7.202
G03 X-8.537 Y-7.343
G03 X-8.396 Y-7.553
G03 X-8.396 Y-7.834
G03 X-8.537 Y-7.905
G03 X-6.429 Y-7.483
G03 X-6.218 Y-7.132
G03 X-6.218 Y-6.780
G03 X-6.078 Y-6.780
G03 X-5.937 Y-6.991
G03 X-5.937 Y-7.343
G03 X-6.008 Y-7.483
G03 X-6.359 Y-7.483
G03 X-5.656 Y-10.083
G03 X-5.656 Y-9.942
G03 X-5.797 Y-9.802
G03 X-5.726 Y-9.661
G03 X-5.305 Y-9.521
G03 X-5.024 Y-9.731
G03 X-5.024 Y-9.872
G03 X-5.305 Y-10.013
G03 X-5.375 Y-10.223
G03 X-5.586 Y-10.153
G03 X-7.413 Y-10.856
G03 X-7.343 Y-10.434
G03 X-7.483 Y-10.294
G03 X-7.553 Y-9.521
G03 X-7.694 Y-9.521
G03 X-7.764 Y-10.153
G03 X-7.624 Y-10.434
G03 X-7.624 Y-10.715
G03 X-7.483 Y-10.856
G03 X-7.834 Y-13.666
G03 X-7.834 Y-13.455
G03 X-8.256 Y-13.034
G03 X-8.326 Y-12.823
G03 X-8.537 Y-12.612
G03 X-8.678 Y-12.612
G03 X-8.748 Y-12.683
G03 X-8.607 Y-12.753
G03 X-8.678 Y-12.893
G03 X-8.396 Y-13.104
G03 X-8.467 Y-13.245
G03 X-8.186 Y-13.455
G03 X-8.115 Y-13.596
G03 X-7.905 Y-13.666
G03 X-3.408 Y-11.488
G03 X-3.900 Y-11.066
G03 X-4.462 Y-10.856
G03 X-4.673 Y-10.575
G03 X-4.532 Y-10.504
G03 X-3.478 Y-11.137
G03 X-3.338 Y-11.137
G03 X-3.056 Y-11.488
G03 X-3.267 Y-11.558
G03 X-3.338 Y-11.488
G03 X-1.651 Y-11.277
G03 X-1.721 Y-11.207
G03 X-1.370 Y-10.715
G03 X-1.370 Y-10.434
G03 X-1.159 Y-10.294
G03 X-0.949 Y-10.294
G03 X-0.668 Y-10.153
G03 X0.035 Y-10.153
G03 X0.105 Y-10.364
G03 X0.386 Y-10.364
G03 X0.457 Y-10.223
G03 X0.316 Y-10.153
G03 X0.316 Y-10.083
G03 X0.527 Y-10.013
G03 X0.597 Y-10.083
G03 X0.808 Y-10.083
G03 X0.808 Y-10.153
G03 X0.597 Y-10.294
G03 X0.668 Y-10.434
G03 X0.808 Y-10.504
G03 X0.949 Y-10.434
G03 X1.019 Y-10.575
G03 X1.230 Y-10.645
G03 X1.440 Y-10.364
G03 X1.651 Y-10.294
G03 X1.862 Y-10.013
G03 X2.143 Y-10.013
G03 X1.932 Y-10.013
G03 X1.721 Y-10.294
G03 X1.581 Y-10.294
G03 X1.089 Y-10.715
G03 X1.019 Y-10.575
G03 X0.527 Y-10.364
G03 X0.105 Y-10.364
G03 X-0.246 Y-10.504
G03 X-1.300 Y-10.645
G03 X-1.581 Y-10.996
G03 X-1.651 Y-11.207
G03 X-2.354 Y-9.942
G03 X-2.284 Y-10.013
G03 X-2.143 Y-9.942
G03 X-2.354 Y-9.661
G03 X-2.916 Y-9.661
G03 X-3.056 Y-9.802
G03 X-2.986 Y-9.942
G03 X-2.846 Y-9.872
G03 X-2.494 Y-9.872
G03 X-2.424 Y-9.942
G03 X2.143 Y-11.769
G03 X2.073 Y-11.558
G03 X2.354 Y-11.348
G03 X2.494 Y-11.066
G03 X2.494 Y-10.785
G03 X2.354 Y-10.645
G03 X2.354 Y-10.434
G03 X2.494 Y-10.364
G03 X2.705 Y-10.856
G03 X2.494 Y-11.488
G03 X2.354 Y-11.699
G03 X2.213 Y-11.769
G03 X1.721 Y-14.580
G03 X1.862 Y-13.737
G03 X1.932 Y-13.666
G03 X1.932 Y-13.315
G03 X1.862 Y-13.174
G03 X1.792 Y-13.174
G03 X1.721 Y-13.385
G03 X1.721 Y-13.947
G03 X1.581 Y-14.299
G03 X1.651 Y-14.580
G03 X-2.143 Y-15.072
G03 X-1.862 Y-15.072
G03 X-1.792 Y-14.861
G03 X-2.003 Y-14.720
G03 X-2.284 Y-14.790
G03 X-2.424 Y-14.650
G03 X-3.408 Y-14.299
G03 X-4.110 Y-14.228
G03 X-4.181 Y-14.299
G03 X-4.602 Y-14.299
G03 X-4.883 Y-14.439
G03 X-5.305 Y-14.509
G03 X-5.305 Y-14.650
G03 X-5.024 Y-14.650
G03 X-4.954 Y-14.580
G03 X-3.759 Y-14.509
G03 X-3.127 Y-14.720
G03 X-2.494 Y-14.790
G03 X-2.213 Y-15.072
G03 X-1.581 Y-16.969
G03 X-1.511 Y-16.828
G03 X-1.581 Y-16.477
G03 X-1.440 Y-16.407
G03 X-1.300 Y-16.477
G03 X-1.300 Y-16.758
G03 X-1.370 Y-16.898
G03 X-1.511 Y-16.969
G03 X-2.143 Y-18.585
G03 X-1.089 Y-18.585
G03 X-0.878 Y-18.514
G03 X-0.457 Y-18.163
G03 X-0.246 Y-18.163
G03 X-0.246 Y-18.023
G03 X-0.316 Y-18.163
G03 X-0.457 Y-18.093
G03 X-0.527 Y-17.742
G03 X-0.878 Y-17.742
G03 X-1.159 Y-18.023
G03 X-1.581 Y-18.023
G03 X-1.792 Y-17.812
G03 X-2.003 Y-17.742
G03 X-2.635 Y-17.882
G03 X-3.267 Y-17.671
G03 X-4.110 Y-17.671
G03 X-4.321 Y-17.460
G03 X-4.462 Y-17.531
G03 X-4.954 Y-17.531
G03 X-5.164 Y-17.390
G03 X-5.937 Y-17.460
G03 X-6.148 Y-17.531
G03 X-6.359 Y-17.742
G03 X-6.851 Y-17.039
G03 X-6.710 Y-16.969
G03 X-6.359 Y-17.109
G03 X-6.289 Y-17.250
G03 X-6.008 Y-17.250
G03 X-6.078 Y-17.039
G03 X-6.289 Y-16.898
G03 X-6.429 Y-16.898
G03 X-6.851 Y-16.477
G03 X-7.202 Y-16.477
G03 X-7.202 Y-16.688
G03 X-7.061 Y-16.758
G03 X-7.061 Y-16.898
G03 X-6.710 Y-17.320
G03 X-6.640 Y-17.531
G03 X-6.429 Y-17.671
G03 X-6.429 Y-17.812
G03 X-5.797 Y-18.233
G03 X-5.375 Y-18.023
G03 X-5.305 Y-18.163
G03 X-4.883 Y-18.233
G03 X-4.743 Y-18.374
G03 X-4.462 Y-18.444
G03 X-3.759 Y-18.233
G03 X-3.408 Y-18.304
G03 X-3.338 Y-18.233
G03 X-2.986 Y-18.233
G03 X-2.916 Y-18.374
G03 X-2.986 Y-18.444
G03 X-3.338 Y-18.444
G03 X-2.424 Y-18.444
G03 X-2.213 Y-18.585
G03 X-3.338 Y-16.969
G03 X-2.916 Y-16.828
G03 X-2.916 Y-16.688
G03 X-3.056 Y-16.688
G03 X-3.127 Y-16.547
G03 X-2.916 Y-16.266
G03 X-2.705 Y-16.407
G03 X-2.213 Y-16.125
G03 X-2.284 Y-15.774
G03 X-2.565 Y-15.985
G03 X-2.705 Y-15.985
G03 X-3.267 Y-16.617
G03 X-3.478 Y-16.617
G03 X-3.548 Y-16.547
G03 X-3.548 Y-16.055
G03 X-3.900 Y-15.634
G03 X-4.602 Y-15.634
G03 X-5.094 Y-15.844
G03 X-5.586 Y-15.844
G03 X-5.797 Y-15.704
G03 X-5.797 Y-15.493
G03 X-6.008 Y-15.423
G03 X-6.218 Y-15.142
G03 X-6.359 Y-15.072
G03 X-6.780 Y-15.072
G03 X-6.851 Y-15.001
G03 X-7.061 Y-15.072
G03 X-7.061 Y-15.212
G03 X-6.921 Y-15.353
G03 X-6.499 Y-15.353
G03 X-6.429 Y-15.423
G03 X-6.429 Y-15.774
G03 X-6.359 Y-15.915
G03 X-6.078 Y-16.055
G03 X-5.937 Y-16.266
G03 X-5.094 Y-16.266
G03 X-4.883 Y-16.336
G03 X-4.673 Y-16.196
G03 X-4.391 Y-16.196
G03 X-4.251 Y-16.336
G03 X-4.251 Y-16.688
G03 X-3.759 Y-16.758
G03 X-3.408 Y-16.969
G03 X3.759 Y-24.065
G03 X3.900 Y-23.433
G03 X4.110 Y-23.082
G03 X4.110 Y-22.730
G03 X4.321 Y-22.379
G03 X4.391 Y-21.606
G03 X4.532 Y-21.606
G03 X4.602 Y-22.168
G03 X4.532 Y-22.238
G03 X4.532 Y-22.449
G03 X4.391 Y-22.590
G03 X4.391 Y-22.941
G03 X4.181 Y-23.573
G03 X4.181 Y-23.995
G03 X4.110 Y-24.065
G03 X3.829 Y-24.065
G03 X-2.916 Y-28.211
G03 X-2.635 Y-28.000
G03 X-2.354 Y-28.000
G03 X-2.354 Y-27.930
G03 X-2.635 Y-27.789
G03 X-2.916 Y-27.789
G03 X-3.056 Y-27.930
G03 X-3.056 Y-28.141
G03 X-2.986 Y-28.211
G03 X-4.251 Y-29.967
G03 X-1.792 Y-29.897
G03 X1.300 Y-28.773
G03 X4.181 Y-25.541
G03 X5.375 Y-23.433
G03 X6.008 Y-21.184
G03 X6.218 Y-18.374
G03 X5.867 Y-15.142
G03 X6.710 Y-12.472
G03 X8.959 Y-12.261
G03 X9.661 Y-11.699
G03 X11.207 Y-11.277
G03 X11.418 Y-10.926
G03 X11.207 Y-11.207
G03 X11.066 Y-10.996
G03 X14.299 Y-7.624
G03 X14.439 Y-7.834
G03 X13.807 Y-8.748
G03 X15.774 Y-5.937
G03 X16.758 Y-5.726
G03 X15.985 Y-6.359
G03 X14.790 Y-8.186
G03 X12.893 Y-10.364
G03 X13.455 Y-10.434
G03 X10.645 Y-12.191
G03 X10.223 Y-12.120
G03 X10.083 Y-12.542
G03 X9.169 Y-12.542
G03 X9.169 Y-12.823
G03 X7.272 Y-12.542
G03 X9.099 Y-12.893
G03 X11.277 Y-12.261
G03 X14.931 Y-9.802
G03 X15.844 Y-8.607
G03 X16.828 Y-5.797
G03 X18.023 Y-5.024
G03 X19.077 Y-3.759
G03 X19.568 Y-2.143
G03 X19.498 Y-1.370
G03 X19.920 Y-0.668
G03 X19.639 Y0.808
G03 X19.849 Y1.721
G03 X19.639 Y1.089
G03 X19.498 Y1.651
G03 X20.412 Y3.338
G03 X21.395 Y4.602
G03 X23.152 Y5.024
G03 X24.206 Y5.726
G03 X26.806 Y9.029
G03 X27.578 Y10.715
G03 X28.000 Y10.785
G03 X28.000 Y11.418
G03 X27.368 Y10.926
G03 X26.595 Y9.591
G03 X25.681 Y9.731
G03 X25.822 Y9.169
G03 X25.400 Y9.029
G03 X25.049 Y9.591
G03 X25.189 Y8.818
G03 X24.698 Y9.029
G03 X23.925 Y8.045
G03 X23.573 Y7.975
G03 X23.363 Y8.256
G03 X22.519 Y7.905
G03 X22.449 Y7.132
G03 X21.747 Y6.921
G03 X21.887 Y7.343
G03 X21.184 Y7.202
G03 X20.622 Y7.413
G03 X19.639 Y6.991
G03 X19.498 Y6.429
G03 X19.006 Y6.289
G03 X18.585 Y5.726
G03 X17.952 Y5.726
G03 X17.952 Y6.008
G03 X17.601 Y6.008
G03 X17.531 Y6.429
G03 X16.969 Y6.710
G03 X16.688 Y7.272
G03 X16.477 Y9.872
G03 X16.688 Y10.013
G03 X17.250 Y9.591
G03 X17.320 Y9.169
G03 X17.390 Y9.591
G03 X16.688 Y10.364
G03 X16.688 Y10.785
G03 X16.969 Y10.996
G03 X16.688 Y10.856
G03 X16.617 Y11.207
G03 X17.531 Y11.418
G03 X18.444 Y10.504
G03 X18.585 Y9.310
G03 X18.093 Y8.186
G03 X18.514 Y7.834
G03 X18.444 Y6.359
G03 X18.655 Y6.429
G03 X19.006 Y8.256
G03 X19.077 Y10.013
G03 X17.531 Y14.650
G03 X17.390 Y16.477
G03 X17.812 Y17.109
G03 X18.163 Y17.109
G03 X17.742 Y17.320
G03 X18.163 Y17.531
G03 X18.795 Y17.320
G03 X18.725 Y16.828
G03 X19.217 Y16.617
G03 X18.725 Y17.812
G03 X18.795 Y18.374
G03 X19.498 Y19.287
G03 X20.271 Y19.006
G03 X19.779 Y19.358
G03 X19.779 Y19.639
G03 X19.287 Y19.709
G03 X18.655 Y18.866
G03 X18.585 Y18.233
G03 X18.023 Y17.742
G03 X17.531 Y17.671
G03 X17.179 Y17.039
G03 X17.460 Y16.617
G03 X17.250 Y16.477
G03 X17.250 Y15.282
G03 X16.617 Y15.423
G03 X16.617 Y15.774
G03 X16.055 Y15.985
G03 X15.915 Y16.336
G03 X15.563 Y16.266
G03 X16.125 Y15.072
G03 X16.969 Y14.439
G03 X17.812 Y12.893
G03 X17.742 Y12.050
G03 X16.547 Y11.839
G03 X16.125 Y9.240
G03 X15.774 Y9.521
G03 X15.493 Y9.310
G03 X14.861 Y10.223
G03 X16.336 Y6.991
G03 X15.704 Y3.408
G03 X15.774 Y1.651
G03 X16.407 Y1.370
G03 X16.688 Y1.511
G03 X16.898 Y2.284
G03 X16.758 Y3.829
G03 X17.109 Y4.110
G03 X17.109 Y4.532
G03 X17.671 Y4.251
G03 X17.390 Y2.916
G03 X17.109 Y2.775
G03 X17.039 Y1.792
G03 X17.250 Y1.581
G03 X16.898 Y0.808
G03 X17.179 Y0.386
G03 X17.390 Y0.808
G03 X17.179 Y1.159
G03 X17.531 Y1.862
G03 X17.390 Y2.986
G03 X17.671 Y3.829
G03 X18.023 Y3.829
G03 X17.671 Y-0.386
G03 X16.688 Y-0.386
G03 X16.547 Y-0.035
G03 X16.125 Y-0.597
G03 X15.704 Y-0.457
G03 X15.142 Y-1.651
G03 X14.931 Y-1.159
G03 X14.720 Y-1.300
G03 X14.439 Y-0.878
G03 X13.947 Y-1.300
G03 X13.245 Y-4.391
G03 X12.612 Y-4.883
G03 X11.769 Y-6.359
G03 X10.223 Y-7.834
G03 X10.856 Y-7.272
G03 X11.348 Y-7.553
G03 X12.331 Y-6.570
G03 X12.683 Y-6.570
G03 X12.823 Y-6.991
G03 X13.666 Y-5.937
G03 X14.018 Y-6.008
G03 X13.315 Y-7.132
G03 X14.228 Y-6.429
G03 X14.509 Y-6.780
G03 X11.207 Y-10.013
G03 X11.066 Y-9.731
G03 X10.434 Y-9.942
G03 X9.450 Y-10.715
G03 X7.413 Y-10.856
G03 X6.429 Y-10.504
G03 X6.218 Y-10.013
G03 X6.780 Y-12.402
G03 X6.078 Y-13.526
G03 X6.008 Y-14.088
G03 X5.586 Y-14.369
G03 X5.726 Y-14.790
G03 X5.094 Y-16.055
G03 X4.743 Y-14.931
G03 X5.094 Y-14.720
G03 X5.094 Y-14.299
G03 X2.565 Y-14.650
G03 X2.916 Y-13.807
G03 X2.986 Y-12.542
G03 X3.900 Y-11.558
G03 X4.251 Y-11.558
G03 X5.094 Y-10.785
G03 X5.516 Y-10.996
G03 X5.656 Y-11.769
G03 X5.235 Y-13.526
G03 X5.797 Y-13.104
G03 X5.937 Y-12.612
G03 X5.656 Y-10.223
G03 X5.375 Y-10.013
G03 X5.445 Y-9.661
G03 X5.305 Y-9.942
G03 X5.024 Y-9.591
G03 X5.867 Y-8.678
G03 X5.726 Y-7.905
G03 X4.391 Y-5.024
G03 X4.462 Y-2.775
G03 X3.689 Y-1.862
G03 X3.548 Y-1.230
G03 X3.829 Y-0.949
G03 X4.602 Y-1.862
G03 X3.900 Y-1.019
G03 X4.181 Y-0.246
G03 X5.024 Y0.316
G03 X4.462 Y0.668
G03 X4.391 Y1.230
G03 X4.181 Y1.159
G03 X3.478 Y-1.230
G03 X2.424 Y-1.019
G03 X1.932 Y-0.597
G03 X1.932 Y-0.949
G03 X2.916 Y-1.862
G03 X3.548 Y-3.127
G03 X3.338 Y-3.619
G03 X2.143 Y-3.548
G03 X2.424 Y-3.689
G03 X2.916 Y-5.375
G03 X2.284 Y-5.586
G03 X2.284 Y-5.305
G03 X1.511 Y-4.813
G03 X0.949 Y-4.883
G03 X1.089 Y-4.321
G03 X1.651 Y-4.181
G03 X1.300 Y-4.110
G03 X1.440 Y-3.408
G03 X1.019 Y-3.338
G03 X0.878 Y-3.548
G03 X1.230 Y-3.478
G03 X1.300 Y-4.040
G03 X1.019 Y-4.321
G03 X0.035 Y-4.391
G03 X-0.597 Y-4.110
G03 X-0.527 Y-4.954
G03 X-0.738 Y-5.164
G03 X-1.792 Y-5.164
G03 X-1.651 Y-5.797
G03 X-2.073 Y-5.797
G03 X2.424 Y-5.586
G03 X2.775 Y-5.797
G03 X2.494 Y-5.516
G03 X2.916 Y-5.516
G03 X3.267 Y-6.148
G03 X3.548 Y-7.905
G03 X2.986 Y-8.326
G03 X2.705 Y-7.764
G03 X2.424 Y-7.764
G03 X2.003 Y-8.537
G03 X2.143 Y-8.326
G03 X2.354 Y-8.607
G03 X3.338 Y-8.326
G03 X3.689 Y-7.764
G03 X3.900 Y-8.115
G03 X3.619 Y-9.099
G03 X3.970 Y-8.888
G03 X4.251 Y-9.029
G03 X4.251 Y-9.661
G03 X3.900 Y-9.661
G03 X3.829 Y-9.942
G03 X4.462 Y-10.364
G03 X4.883 Y-9.802
G03 X4.532 Y-9.380
G03 X4.462 Y-8.537
G03 X3.970 Y-8.115
G03 X4.040 Y-6.429
G03 X3.829 Y-6.429
G03 X3.478 Y-7.202
G03 X3.197 Y-6.499
G03 X3.197 Y-5.867
G03 X3.759 Y-4.602
G03 X3.197 Y-4.954
G03 X2.846 Y-4.251
G03 X3.548 Y-3.900
G03 X3.408 Y-3.548
G03 X3.689 Y-3.197
G03 X4.040 Y-3.759
G03 X3.759 Y-4.321
G03 X4.391 Y-4.743
G03 X4.181 Y-5.586
G03 X4.532 Y-5.867
G03 X4.743 Y-7.413
G03 X5.164 Y-8.045
G03 X4.954 Y-8.888
G03 X5.164 Y-10.223
G03 X4.743 Y-10.785
G03 X3.970 Y-11.066
G03 X3.548 Y-10.364
G03 X3.548 Y-9.802
G03 X2.916 Y-9.099
G03 X1.721 Y-8.678
G03 X0.246 Y-8.607
G03 X-1.019 Y-8.888
G03 X-3.056 Y-8.748
G03 X-3.127 Y-8.326
G03 X-2.354 Y-7.975
G03 X0.527 Y-8.045
G03 X1.440 Y-7.834
G03 X1.932 Y-8.115
G03 X1.792 Y-7.553
G03 X2.073 Y-7.343
G03 X1.862 Y-7.061
G03 X1.651 Y-7.905
G03 X-0.808 Y-7.483
G03 X-1.159 Y-7.905
G03 X-2.073 Y-7.975
G03 X-2.073 Y-7.694
G03 X-2.424 Y-7.553
G03 X-3.759 Y-8.326
G03 X-4.673 Y-8.186
G03 X-4.181 Y-8.467
G03 X-4.110 Y-8.818
G03 X-3.127 Y-8.537
G03 X-2.986 Y-8.888
G03 X-2.354 Y-9.099
G03 X-2.073 Y-8.888
G03 X-1.721 Y-9.240
G03 X-1.862 Y-9.591
G03 X-3.267 Y-9.450
G03 X-4.110 Y-9.731
G03 X-4.110 Y-10.153
G03 X-4.391 Y-10.223
G03 X-5.235 Y-9.099
G03 X-4.813 Y-8.607
G03 X-4.743 Y-7.483
G03 X-5.024 Y-6.780
G03 X-4.813 Y-6.429
G03 X-5.235 Y-6.218
G03 X-5.164 Y-7.975
G03 X-5.726 Y-8.607
G03 X-5.797 Y-9.310
G03 X-5.937 Y-9.029
G03 X-6.008 Y-9.661
G03 X-5.305 Y-10.434
G03 X-3.127 Y-11.558
G03 X-2.003 Y-12.542
G03 X-3.056 Y-11.488
G03 X-1.651 Y-12.331
G03 X-1.862 Y-11.699
G03 X-2.354 Y-11.629
G03 X-2.775 Y-11.066
G03 X-4.251 Y-10.434
G03 X-4.251 Y-10.223
G03 X-2.846 Y-9.872
G03 X-0.246 Y-9.872
G03 X1.230 Y-9.450
G03 X2.284 Y-9.591
G03 X2.846 Y-10.153
G03 X3.267 Y-11.207
G03 X2.494 Y-12.753
G03 X1.651 Y-16.758
G03 X2.494 Y-17.882
G03 X1.862 Y-17.179
G03 X1.792 Y-16.617
G03 X2.073 Y-16.969
G03 X2.705 Y-16.969
G03 X2.354 Y-16.617
G03 X2.494 Y-16.336
G03 X3.478 Y-16.266
G03 X4.040 Y-16.336
G03 X4.251 Y-16.617
G03 X3.900 Y-15.774
G03 X2.635 Y-15.915
G03 X2.354 Y-15.493
G03 X4.321 Y-14.650
G03 X4.743 Y-15.072
G03 X4.602 Y-15.844
G03 X5.024 Y-16.125
G03 X4.673 Y-16.688
G03 X5.375 Y-17.039
G03 X5.375 Y-17.531
G03 X3.970 Y-17.952
G03 X2.986 Y-17.390
G03 X3.267 Y-18.304
G03 X2.775 Y-18.233
G03 X3.338 Y-18.585
G03 X4.602 Y-18.655
G03 X6.078 Y-17.952
G03 X6.008 Y-18.655
G03 X5.656 Y-19.077
G03 X5.656 Y-21.184
G03 X5.094 Y-21.606
G03 X5.516 Y-21.747
G03 X5.235 Y-23.011
G03 X4.883 Y-23.573
G03 X4.532 Y-23.644
G03 X4.602 Y-24.206
G03 X3.829 Y-24.557
G03 X3.267 Y-25.541
G03 X2.635 Y-25.962
G03 X2.635 Y-26.384
G03 X1.651 Y-27.789
G03 X1.370 Y-27.859
G03 X1.159 Y-27.508
G03 X1.089 Y-26.454
G03 X1.159 Y-27.368
G03 X0.878 Y-27.508
G03 X0.597 Y-27.227
