(Generated from /mnt/data/image.png)
(Assumptions: units mm, centerline trace, max X 150mm, shallow engraving)
G21 (mm)
G90 (absolute)
G17
G0 Z5.000
M3 S1000
(Path 1)
G1 Z-0.500 F120
G1 X-60.169 Y-3.813 F500
G1 X-67.373 Y-2.967 F500
G1 X-66.102 Y-0.424 F500
G1 X-49.577 Y9.745 F500
G1 X-37.289 Y20.762 F500
G1 X-33.899 Y20.338 F500
G1 X-32.204 Y18.643 F500
G1 X-31.780 Y15.255 F500
G0 Z5.000
(Path 2)
G0 X-32.204 Y14.831 F1500
G1 Z-0.500 F120
G1 X-38.136 Y11.441 F500
G1 X-41.950 Y-0.848 F500
G0 Z5.000
(Path 3)
G0 X-30.509 Y13.136 F1500
G1 Z-0.500 F120
G1 X-30.933 Y-8.050 F500
G1 X-34.746 Y-18.221 F500
G1 X-37.289 Y-17.797 F500
G1 X-39.407 Y-14.831 F500
G1 X-41.950 Y-1.694 F500
G0 Z5.000
(Path 4)
G0 X-30.085 Y13.559 F1500
G1 Z-0.500 F120
G1 X-17.797 Y9.745 F500
G1 X-5.085 Y7.627 F500
G1 X23.305 Y8.474 F500
G1 X50.001 Y14.407 F500
G1 X63.983 Y20.762 F500
G1 X67.373 Y20.762 F500
G1 X66.950 Y18.221 F500
G1 X64.406 Y15.678 F500
G1 X58.050 Y12.712 F500
G1 X55.508 Y-20.762 F500
G1 X52.966 Y-18.645 F500
G1 X50.847 Y-5.084 F500
G1 X49.153 Y-3.389 F500
G1 X40.678 Y-2.119 F500
G1 X20.340 Y-2.119 F500
G1 X5.084 Y-4.662 F500
G1 X-18.221 Y-4.662 F500
G1 X-20.339 Y-5.932 F500
G1 X-23.729 Y-20.762 F500
G0 Z5.000
M5
M2
