(Generated from /mnt/data/image.png)
(Assumptions: units mm, centerline trace, max X 150mm, shallow engraving)
G21 (mm)
G90 (absolute)
G17
G0 Z5.000
M3 S1000
(Path 1)
G1 Z-0.500 F120
G1 X13.983 Y37.712 F500
G1 X6.780 Y38.559 F500
G1 X8.051 Y41.102 F500
G1 X24.576 Y51.271 F500
G1 X36.864 Y62.288 F500
G1 X40.254 Y61.864 F500
G1 X41.949 Y60.169 F500
G1 X42.373 Y56.780 F500
G0 Z5.000
(Path 2)
G0 X41.949 Y56.356 F1500
G1 Z-0.500 F120
G1 X36.017 Y52.966 F500
G1 X32.203 Y40.678 F500
G0 Z5.000
(Path 3)
G0 X43.644 Y54.661 F1500
G1 Z-0.500 F120
G1 X43.220 Y33.475 F500
G1 X39.407 Y23.305 F500
G1 X36.864 Y23.729 F500
G1 X34.746 Y26.695 F500
G1 X32.203 Y39.831 F500
G0 Z5.000
(Path 4)
G0 X44.068 Y55.085 F1500
G1 Z-0.500 F120
G1 X56.356 Y51.271 F500
G1 X69.068 Y49.153 F500
G1 X97.458 Y50.000 F500
G1 X124.153 Y55.932 F500
G1 X138.136 Y62.288 F500
G1 X141.525 Y62.288 F500
G1 X141.102 Y59.746 F500
G1 X138.559 Y57.203 F500
G1 X132.203 Y54.237 F500
G1 X129.661 Y20.763 F500
G1 X127.119 Y22.881 F500
G1 X125.000 Y36.441 F500
G1 X123.305 Y38.136 F500
G1 X114.831 Y39.407 F500
G1 X94.492 Y39.407 F500
G1 X79.237 Y36.864 F500
G1 X55.932 Y36.864 F500
G1 X53.814 Y35.593 F500
G1 X50.424 Y20.763 F500
G0 Z5.000
M5
M2
